<?xml version="1.0" encoding="UTF-8"?>
<map version="1.10" tiledversion="1.10.1" orientation="orthogonal" renderorder="right-down" width="10" height="20" tilewidth="32" tileheight="32" infinite="0" nextlayerid="6" nextobjectid="1">
 <tileset firstgid="1" source="../tileset_gen4.tsx"/>
 <tileset firstgid="41" source="../tileset_gen9.tsx"/>
 <layer id="1" name="ground" width="10" height="20">
  <data encoding="csv">
14,14,14,14,14,14,14,14,14,14,
14,14,14,14,14,14,14,14,14,14,
14,14,14,14,14,14,14,14,14,14,
14,14,14,14,14,14,14,14,14,14,
14,14,14,14,14,14,14,14,14,14,
14,14,14,14,14,14,14,14,14,14,
14,14,14,14,14,14,14,14,14,14,
14,14,14,14,14,14,14,14,14,14,
14,14,14,14,14,14,14,14,14,14,
14,14,14,14,14,14,14,14,14,14,
14,14,14,14,14,14,14,14,14,14,
14,14,14,14,14,14,14,14,14,14,
14,14,14,14,14,14,14,14,14,14,
14,14,14,14,14,14,14,14,14,14,
14,14,14,14,14,14,14,14,14,14,
14,14,14,14,14,14,14,14,14,14,
14,14,14,14,14,14,14,14,14,14,
14,14,14,14,14,14,14,14,14,14,
14,14,14,14,14,14,14,14,14,14,
14,14,14,14,14,14,14,14,14,14
</data>
 </layer>
 <layer id="3" name="walls" width="10" height="20">
  <data encoding="csv">
128,71,71,130,71,71,71,71,71,74,
72,0,0,0,0,0,0,0,0,72,
72,0,0,0,0,0,0,0,0,72,
77,0,0,0,0,0,0,0,0,77,
0,0,0,0,0,0,0,0,0,0,
127,0,0,0,0,0,0,0,0,127,
72,0,0,0,0,0,0,0,0,72,
72,0,0,0,0,0,0,0,0,72,
72,0,0,0,0,0,0,0,0,72,
72,0,0,0,0,0,0,0,0,72,
72,0,0,0,0,0,0,0,0,72,
72,0,0,0,0,0,0,0,0,72,
72,0,0,0,0,0,0,0,0,72,
72,0,0,0,0,0,0,0,0,72,
72,0,0,0,0,0,0,0,0,72,
72,0,0,0,0,0,0,0,0,72,
72,0,0,0,0,0,0,0,0,72,
72,0,0,0,0,0,0,0,0,72,
72,0,0,0,0,0,0,0,0,72,
75,71,71,79,0,0,0,78,71,76
</data>
 </layer>
</map>
