<?xml version="1.0" encoding="UTF-8"?>
<map version="1.10" tiledversion="1.11.2" orientation="orthogonal" renderorder="right-down" width="63" height="63" tilewidth="32" tileheight="32" infinite="0" nextlayerid="4" nextobjectid="1">
 <tileset firstgid="1" source="mini_tileset.tsx"/>
 <tileset firstgid="5" source="tileset_gen4.tsx"/>
 <layer id="1" name="street_asphalt" width="63" height="63">
  <data encoding="csv">
0,0,0,0,0,0,0,0,0,0,0,0,0,0,0,0,0,2147483653,3758096389,5,5,5,2147483653,2147483653,2147483653,5,536870917,536870917,536870917,5,1073741829,1073741829,1073741829,5,5,1073741829,1073741829,1073741829,1073741829,3758096389,3758096389,3758096389,3758096389,5,1073741829,5,0,0,0,0,0,0,0,0,0,0,0,0,0,0,0,0,0,
0,0,0,0,0,0,0,0,0,0,0,0,0,0,0,0,0,2147483653,3758096389,3758096389,2147483653,1073741829,1073741829,1073741829,1073741829,536870917,536870917,5,3758096389,3758096389,5,1073741829,1073741829,536870917,536870917,2147483653,5,2147483653,5,5,5,2147483653,2147483653,2147483653,1073741829,2147483653,0,0,0,0,0,0,0,0,0,0,0,0,0,0,0,0,0,
0,0,0,0,0,0,0,0,0,0,0,0,0,0,0,0,0,2147483653,3758096389,5,5,3758096389,1073741829,1073741829,1073741829,1073741829,1073741829,1073741829,1073741829,1073741829,5,5,5,2147483653,2147483653,2147483653,5,536870917,536870917,2147483653,3758096389,3758096389,5,5,1073741829,3758096389,0,0,0,0,0,0,0,0,0,0,0,0,0,0,0,0,0,
0,0,0,0,0,0,0,0,0,0,0,0,0,0,0,0,0,3758096389,2147483653,536870917,3758096389,3758096389,2147483653,2147483653,2147483653,1073741829,1073741829,1073741829,1073741829,3758096389,2147483653,2147483653,2147483653,2147483653,536870917,3758096389,5,536870917,5,3758096389,3758096389,5,536870917,536870917,536870917,2147483653,0,0,0,0,0,0,0,0,0,0,0,0,0,0,0,0,0,
0,0,0,0,0,0,0,0,0,0,0,0,0,0,0,0,0,1073741829,536870917,5,5,3758096389,2147483653,2147483653,536870917,3758096389,536870917,536870917,3758096389,3758096389,5,2147483653,2147483653,536870917,536870917,3758096389,5,5,5,3758096389,5,5,536870917,5,5,536870917,0,0,0,0,0,0,0,0,0,0,0,0,0,0,0,0,0,
0,0,0,0,0,0,0,0,0,0,0,0,0,0,0,0,0,1073741829,536870917,5,3758096389,3758096389,2147483653,2147483653,3758096389,536870917,536870917,536870917,536870917,536870917,536870917,2147483653,536870917,536870917,5,3758096389,5,2147483653,5,3758096389,2147483653,5,5,5,1073741829,2147483653,0,0,0,0,0,0,0,0,0,0,0,0,0,0,0,0,0,
0,0,0,0,0,0,0,0,0,0,0,0,0,0,0,0,0,1073741829,536870917,5,3758096389,1073741829,2147483653,1073741829,3758096389,536870917,536870917,3758096389,1073741829,536870917,536870917,2147483653,3758096389,3758096389,536870917,3758096389,5,2147483653,1073741829,1073741829,2147483653,1073741829,5,5,1073741829,536870917,0,0,0,0,0,0,0,0,0,0,0,0,0,0,0,0,0,
0,0,0,0,0,0,0,0,0,0,0,0,0,0,0,0,0,536870917,536870917,3758096389,1073741829,1073741829,2147483653,536870917,536870917,536870917,1073741829,3758096389,3758096389,536870917,536870917,536870917,3758096389,536870917,536870917,3758096389,2147483653,1073741829,1073741829,3758096389,3758096389,1073741829,5,2147483653,1073741829,1073741829,0,0,0,0,0,0,0,0,0,0,0,0,0,0,0,0,0,
0,0,0,0,0,0,0,0,0,0,0,0,0,0,0,0,0,536870917,536870917,1073741829,1073741829,1073741829,1073741829,536870917,2147483653,2147483653,536870917,1073741829,536870917,2147483653,1073741829,536870917,3758096389,536870917,5,3758096389,2147483653,536870917,536870917,3758096389,3758096389,1073741829,2147483653,1073741829,3758096389,5,0,0,0,0,0,0,0,0,0,0,0,0,0,0,0,0,0,
0,0,0,0,0,0,0,0,0,0,0,0,0,0,0,0,0,536870917,5,1073741829,536870917,536870917,1073741829,536870917,536870917,2147483653,1073741829,1073741829,536870917,1073741829,1073741829,536870917,2147483653,2147483653,2147483653,3758096389,2147483653,5,536870917,3758096389,3758096389,1073741829,536870917,536870917,1073741829,3758096389,0,0,0,0,0,0,0,0,0,0,0,0,0,0,0,0,0,
0,0,0,0,0,0,0,0,0,0,0,0,0,0,0,0,0,5,1073741829,3758096389,2147483653,1073741829,1073741829,536870917,536870917,2147483653,536870917,5,1073741829,5,1073741829,536870917,536870917,3758096389,536870917,3758096389,1073741829,5,536870917,536870917,536870917,1073741829,3758096389,536870917,2147483653,2147483653,0,0,0,0,0,0,0,0,0,0,0,0,0,0,0,0,0,
0,0,0,0,0,0,0,0,0,0,0,0,0,0,0,0,0,5,3758096389,3758096389,2147483653,5,1073741829,1073741829,1073741829,1073741829,536870917,5,536870917,2147483653,1073741829,536870917,536870917,3758096389,2147483653,3758096389,1073741829,1073741829,2147483653,5,536870917,536870917,3758096389,1073741829,1073741829,1073741829,0,0,0,0,0,0,0,0,0,0,0,0,0,0,0,0,0,
0,0,0,0,0,0,0,0,0,0,0,0,0,0,0,0,0,1073741829,3758096389,2147483653,2147483653,2147483653,1073741829,1073741829,2147483653,2147483653,536870917,536870917,2147483653,2147483653,1073741829,3758096389,1073741829,1073741829,1073741829,3758096389,3758096389,1073741829,1073741829,2147483653,2147483653,2147483653,3758096389,1073741829,1073741829,1073741829,0,0,0,0,0,0,0,0,0,0,0,0,0,0,0,0,0,
0,0,0,0,0,0,0,0,0,0,0,0,0,0,0,0,0,1073741829,2147483653,2147483653,1073741829,2147483653,2147483653,5,5,2147483653,536870917,536870917,2147483653,1073741829,1073741829,3758096389,1073741829,3758096389,536870917,3758096389,3758096389,3758096389,1073741829,536870917,5,1073741829,3758096389,3758096389,536870917,3758096389,0,0,0,0,0,0,0,0,0,0,0,0,0,0,0,0,0,
0,0,0,0,0,0,0,0,0,0,0,0,0,0,0,0,0,1073741829,5,3758096389,5,2147483653,2147483653,5,5,3758096389,536870917,536870917,536870917,5,1073741829,1073741829,3758096389,2147483653,2147483653,1073741829,3758096389,3758096389,1073741829,1073741829,3758096389,1073741829,3758096389,3758096389,1073741829,536870917,0,0,0,0,0,0,0,0,0,0,0,0,0,0,0,0,0,
0,0,0,0,0,0,0,0,0,0,0,0,0,0,0,0,0,536870917,2147483653,3758096389,5,536870917,2147483653,2147483653,3758096389,3758096389,536870917,536870917,536870917,3758096389,1073741829,2147483653,2147483653,536870917,2147483653,2147483653,3758096389,3758096389,3758096389,1073741829,3758096389,1073741829,3758096389,1073741829,1073741829,3758096389,0,0,0,0,0,0,0,0,0,0,0,0,0,0,0,0,0,
0,0,0,0,0,0,0,0,0,0,0,0,0,0,0,0,0,2147483653,3758096389,3758096389,1073741829,3758096389,3758096389,2147483653,2147483653,536870917,536870917,2147483653,3758096389,2147483653,1073741829,1073741829,5,2147483653,2147483653,2147483653,2147483653,1073741829,5,1073741829,1073741829,1073741829,3758096389,2147483653,1073741829,2147483653,0,0,0,0,0,0,0,0,0,0,0,0,0,0,0,0,0,
0,0,0,0,0,0,0,0,0,0,0,0,0,0,0,0,0,3758096389,536870917,3758096389,3758096389,3758096389,536870917,536870917,536870917,536870917,1073741829,2147483653,2147483653,2147483653,5,1073741829,3758096389,2147483653,2147483653,5,2147483653,2147483653,1073741829,1073741829,1073741829,1073741829,2147483653,2147483653,536870917,536870917,2147483653,2147483653,3758096389,5,3758096389,1073741829,1073741829,5,5,5,5,5,5,5,5,5,1073741829,
0,0,0,0,0,0,0,0,0,0,0,0,0,0,0,0,0,536870917,536870917,5,536870917,5,2147483653,536870917,536870917,536870917,3758096389,3758096389,3758096389,3758096389,3758096389,1073741829,5,2147483653,2147483653,2147483653,1073741829,2147483653,2147483653,2147483653,2147483653,536870917,2147483653,5,536870917,2147483653,2147483653,1073741829,1073741829,536870917,1073741829,1073741829,1073741829,1073741829,1073741829,536870917,536870917,5,5,1073741829,1073741829,5,1073741829,
0,0,0,0,0,0,0,0,0,0,0,0,0,0,0,0,0,5,2147483653,536870917,536870917,2147483653,2147483653,536870917,536870917,3758096389,536870917,2147483653,3758096389,3758096389,3758096389,1073741829,1073741829,3758096389,2147483653,2147483653,1073741829,1073741829,2147483653,2147483653,536870917,536870917,3758096389,3758096389,536870917,2147483653,2147483653,536870917,536870917,1073741829,1073741829,536870917,536870917,536870917,536870917,536870917,536870917,1073741829,5,5,5,2147483653,2147483653,
0,0,0,0,0,0,0,0,0,0,0,0,0,0,0,0,0,1073741829,2147483653,2147483653,5,2147483653,2147483653,536870917,2147483653,536870917,1073741829,3758096389,3758096389,3758096389,3758096389,1073741829,1073741829,3758096389,2147483653,1073741829,1073741829,1073741829,1073741829,1073741829,1073741829,1073741829,1073741829,1073741829,2147483653,536870917,536870917,1073741829,1073741829,536870917,536870917,536870917,2147483653,5,5,536870917,2147483653,2147483653,5,5,2147483653,2147483653,5,
0,0,0,0,0,0,0,0,0,0,0,0,0,0,0,0,0,1073741829,5,2147483653,5,2147483653,536870917,536870917,2147483653,536870917,1073741829,1073741829,3758096389,3758096389,3758096389,3758096389,1073741829,1073741829,2147483653,1073741829,2147483653,2147483653,1073741829,1073741829,2147483653,2147483653,2147483653,2147483653,1073741829,1073741829,536870917,1073741829,3758096389,1073741829,1073741829,5,5,536870917,536870917,536870917,2147483653,2147483653,2147483653,5,536870917,2147483653,5,
0,0,0,0,0,0,0,0,0,0,0,0,0,0,0,0,0,1073741829,1073741829,2147483653,536870917,2147483653,536870917,536870917,2147483653,1073741829,3758096389,3758096389,536870917,5,1073741829,1073741829,3758096389,3758096389,2147483653,1073741829,536870917,2147483653,5,1073741829,2147483653,1073741829,1073741829,2147483653,536870917,536870917,536870917,1073741829,536870917,536870917,536870917,536870917,1073741829,536870917,3758096389,2147483653,2147483653,1073741829,2147483653,2147483653,536870917,2147483653,5,
0,0,0,0,0,0,0,0,0,0,0,0,0,0,0,0,0,1073741829,3758096389,2147483653,536870917,536870917,536870917,536870917,2147483653,2147483653,2147483653,3758096389,536870917,536870917,536870917,1073741829,3758096389,3758096389,2147483653,3758096389,1073741829,1073741829,1073741829,1073741829,1073741829,2147483653,2147483653,1073741829,1073741829,1073741829,1073741829,1073741829,1073741829,536870917,536870917,2147483653,1073741829,1073741829,3758096389,2147483653,1073741829,1073741829,1073741829,2147483653,1073741829,2147483653,5,
0,0,0,0,0,0,0,0,0,0,0,0,0,0,0,0,0,1073741829,3758096389,2147483653,536870917,536870917,1073741829,1073741829,3758096389,2147483653,2147483653,3758096389,1073741829,536870917,2147483653,2147483653,3758096389,3758096389,2147483653,2147483653,1073741829,1073741829,1073741829,1073741829,1073741829,1073741829,1073741829,1073741829,1073741829,1073741829,1073741829,1073741829,1073741829,3758096389,3758096389,2147483653,3758096389,1073741829,1073741829,3758096389,536870917,5,2147483653,2147483653,536870917,2147483653,5,
0,0,0,0,0,0,0,0,0,0,0,0,0,0,0,0,0,5,2147483653,536870917,2147483653,2147483653,1073741829,3758096389,1073741829,5,2147483653,2147483653,2147483653,2147483653,536870917,2147483653,2147483653,3758096389,2147483653,3758096389,1073741829,1073741829,1073741829,2147483653,1073741829,536870917,2147483653,2147483653,2147483653,2147483653,2147483653,536870917,536870917,3758096389,536870917,3758096389,3758096389,3758096389,1073741829,1073741829,536870917,2147483653,2147483653,5,536870917,3758096389,5,
0,0,0,0,0,0,0,0,0,0,0,0,0,0,0,0,0,536870917,536870917,536870917,3758096389,5,5,3758096389,1073741829,1073741829,3758096389,536870917,536870917,1073741829,1073741829,1073741829,2147483653,2147483653,2147483653,1073741829,2147483653,536870917,536870917,536870917,536870917,536870917,2147483653,3758096389,3758096389,3758096389,3758096389,2147483653,536870917,536870917,3758096389,3758096389,3758096389,2147483653,5,5,3758096389,3758096389,3758096389,5,3758096389,2147483653,2147483653,
0,0,0,0,0,0,0,0,0,0,0,0,0,0,0,0,0,536870917,1073741829,536870917,3758096389,2147483653,5,3758096389,1073741829,3758096389,3758096389,5,536870917,536870917,536870917,1073741829,2147483653,536870917,2147483653,2147483653,2147483653,2147483653,2147483653,2147483653,3758096389,3758096389,536870917,536870917,536870917,2147483653,2147483653,2147483653,2147483653,2147483653,1073741829,536870917,3758096389,1073741829,3758096389,3758096389,3758096389,5,3758096389,1073741829,3758096389,3758096389,2147483653,
0,0,0,0,0,0,0,0,0,0,0,0,0,0,0,0,0,536870917,536870917,3758096389,3758096389,3758096389,536870917,1073741829,1073741829,3758096389,5,5,5,5,1073741829,1073741829,2147483653,2147483653,2147483653,2147483653,536870917,2147483653,2147483653,2147483653,2147483653,2147483653,1073741829,2147483653,536870917,536870917,536870917,2147483653,2147483653,536870917,2147483653,536870917,3758096389,1073741829,3758096389,5,3758096389,5,2147483653,2147483653,3758096389,536870917,1073741829,
0,0,0,0,0,0,0,0,0,0,0,0,0,0,0,0,0,2147483653,536870917,1073741829,2147483653,1073741829,1073741829,536870917,536870917,3758096389,1073741829,1073741829,1073741829,5,1073741829,3758096389,2147483653,2147483653,2147483653,2147483653,1073741829,536870917,2147483653,536870917,536870917,536870917,2147483653,2147483653,2147483653,2147483653,536870917,536870917,536870917,536870917,536870917,536870917,3758096389,1073741829,1073741829,2147483653,2147483653,2147483653,2147483653,536870917,3758096389,536870917,1073741829,
0,0,0,0,0,0,0,0,0,0,0,0,0,0,0,0,0,2147483653,536870917,1073741829,2147483653,1073741829,5,536870917,5,3758096389,1073741829,1073741829,2147483653,536870917,536870917,3758096389,2147483653,536870917,2147483653,536870917,1073741829,536870917,3758096389,1073741829,1073741829,536870917,536870917,536870917,536870917,536870917,536870917,536870917,536870917,536870917,1073741829,1073741829,3758096389,1073741829,5,1073741829,536870917,536870917,5,5,3758096389,536870917,1073741829,
0,0,0,0,0,0,0,0,0,0,0,0,0,0,0,0,0,2147483653,536870917,1073741829,3758096389,1073741829,5,536870917,536870917,3758096389,5,536870917,536870917,536870917,2147483653,3758096389,2147483653,3758096389,2147483653,536870917,2147483653,2147483653,3758096389,1073741829,1073741829,2147483653,2147483653,1073741829,1073741829,1073741829,1073741829,1073741829,1073741829,1073741829,1073741829,3758096389,1073741829,1073741829,3758096389,3758096389,2147483653,536870917,1073741829,3758096389,3758096389,536870917,1073741829,
0,0,0,0,0,0,0,0,0,0,0,0,0,0,0,0,0,3758096389,3758096389,1073741829,3758096389,5,5,536870917,536870917,3758096389,536870917,536870917,1073741829,3758096389,536870917,3758096389,3758096389,3758096389,2147483653,536870917,3758096389,3758096389,3758096389,1073741829,1073741829,2147483653,3758096389,3758096389,3758096389,536870917,5,5,3758096389,3758096389,3758096389,1073741829,3758096389,3758096389,3758096389,536870917,536870917,3758096389,1073741829,1073741829,5,5,3758096389,
0,0,0,0,0,0,0,0,0,0,0,0,0,0,0,0,0,3758096389,3758096389,5,2147483653,5,5,536870917,1073741829,3758096389,536870917,1073741829,1073741829,3758096389,536870917,2147483653,536870917,2147483653,2147483653,536870917,3758096389,1073741829,1073741829,1073741829,2147483653,536870917,2147483653,2147483653,3758096389,3758096389,3758096389,3758096389,3758096389,536870917,2147483653,2147483653,3758096389,2147483653,1073741829,1073741829,536870917,536870917,1073741829,1073741829,536870917,2147483653,3758096389,
0,0,0,0,0,0,0,0,0,0,0,0,0,0,0,0,0,5,536870917,3758096389,5,1073741829,1073741829,536870917,536870917,3758096389,3758096389,2147483653,536870917,3758096389,1073741829,2147483653,2147483653,2147483653,1073741829,2147483653,3758096389,1073741829,536870917,1073741829,2147483653,3758096389,3758096389,3758096389,536870917,536870917,536870917,3758096389,3758096389,1073741829,536870917,1073741829,1073741829,1073741829,3758096389,3758096389,3758096389,536870917,536870917,1073741829,1073741829,2147483653,5,
0,0,0,0,0,0,0,0,0,0,0,0,0,0,0,0,0,5,536870917,3758096389,1073741829,1073741829,2147483653,5,1073741829,1073741829,5,5,536870917,3758096389,2147483653,536870917,536870917,536870917,536870917,2147483653,536870917,536870917,536870917,3758096389,536870917,536870917,536870917,536870917,536870917,536870917,3758096389,2147483653,2147483653,1073741829,1073741829,1073741829,536870917,536870917,536870917,536870917,536870917,536870917,1073741829,1073741829,1073741829,2147483653,5,
0,0,0,0,0,0,0,0,0,0,0,0,0,0,0,0,0,5,3758096389,3758096389,1073741829,5,1073741829,1073741829,1073741829,536870917,536870917,536870917,536870917,3758096389,3758096389,2147483653,2147483653,2147483653,2147483653,2147483653,2147483653,1073741829,1073741829,536870917,536870917,536870917,2147483653,3758096389,3758096389,536870917,536870917,536870917,536870917,536870917,536870917,536870917,2147483653,1073741829,536870917,536870917,536870917,1073741829,1073741829,3758096389,1073741829,3758096389,536870917,
0,0,0,0,0,0,0,0,0,0,0,0,0,0,0,0,1073741829,536870917,3758096389,5,1073741829,1073741829,1073741829,536870917,536870917,536870917,1073741829,1073741829,1073741829,2147483653,3758096389,2147483653,2147483653,2147483653,2147483653,2147483653,2147483653,2147483653,2147483653,2147483653,536870917,536870917,2147483653,2147483653,2147483653,2147483653,536870917,536870917,536870917,536870917,536870917,1073741829,1073741829,1073741829,536870917,3758096389,1073741829,1073741829,536870917,536870917,5,3758096389,1073741829,
0,0,0,0,0,0,0,0,0,0,0,0,0,0,0,0,0,3758096389,3758096389,5,5,1073741829,3758096389,3758096389,3758096389,2147483653,5,5,536870917,536870917,536870917,2147483653,2147483653,1073741829,1073741829,1073741829,2147483653,2147483653,2147483653,2147483653,3758096389,2147483653,3758096389,2147483653,2147483653,2147483653,3758096389,3758096389,3758096389,5,5,5,1073741829,3758096389,3758096389,3758096389,1073741829,3758096389,536870917,536870917,5,3758096389,1073741829,
0,0,0,0,0,0,0,0,0,0,0,0,0,0,0,0,0,1073741829,3758096389,5,536870917,536870917,5,5,1073741829,3758096389,3758096389,3758096389,1073741829,3758096389,1073741829,1073741829,2147483653,1073741829,3758096389,3758096389,3758096389,3758096389,3758096389,3758096389,536870917,536870917,536870917,536870917,536870917,536870917,536870917,536870917,536870917,536870917,5,3758096389,536870917,536870917,536870917,3758096389,1073741829,1073741829,536870917,2147483653,5,1073741829,536870917,
0,0,0,0,0,0,0,0,0,0,0,0,0,0,0,0,0,3758096389,3758096389,5,5,5,5,3758096389,5,536870917,536870917,3758096389,3758096389,5,5,5,1073741829,1073741829,1073741829,1073741829,1073741829,2147483653,3758096389,3758096389,3758096389,3758096389,3758096389,1073741829,1073741829,1073741829,1073741829,1073741829,1073741829,536870917,536870917,536870917,1073741829,2147483653,2147483653,3758096389,5,1073741829,5,5,5,2147483653,536870917,
0,0,0,0,0,0,0,0,0,0,0,0,0,0,0,0,0,3758096389,2147483653,5,5,536870917,536870917,3758096389,3758096389,1073741829,1073741829,1073741829,1073741829,1073741829,5,5,5,536870917,536870917,536870917,2147483653,2147483653,2147483653,2147483653,2147483653,1073741829,3758096389,3758096389,3758096389,3758096389,1073741829,1073741829,536870917,1073741829,1073741829,1073741829,1073741829,1073741829,1073741829,3758096389,2147483653,2147483653,5,1073741829,3758096389,1073741829,536870917,
0,0,0,0,0,0,0,0,0,0,0,0,0,0,0,0,0,5,5,5,536870917,2147483653,2147483653,2147483653,3758096389,3758096389,3758096389,1073741829,1073741829,1073741829,1073741829,3758096389,3758096389,3758096389,3758096389,3758096389,3758096389,2147483653,2147483653,2147483653,2147483653,2147483653,3758096389,3758096389,3758096389,1073741829,536870917,536870917,536870917,3758096389,3758096389,3758096389,3758096389,5,5,5,2147483653,2147483653,3758096389,3758096389,2147483653,536870917,536870917,
0,0,0,0,0,0,0,0,0,0,0,0,0,0,0,0,0,5,5,5,2147483653,2147483653,2147483653,5,536870917,2147483653,2147483653,2147483653,2147483653,2147483653,1073741829,1073741829,1073741829,1073741829,1073741829,3758096389,3758096389,3758096389,3758096389,5,2147483653,3758096389,3758096389,536870917,536870917,536870917,536870917,3758096389,3758096389,3758096389,1073741829,5,5,3758096389,3758096389,2147483653,2147483653,2147483653,2147483653,2147483653,2147483653,536870917,2147483653,
0,0,0,0,0,0,0,0,0,0,0,0,0,0,0,0,0,3758096389,2147483653,2147483653,3758096389,3758096389,5,536870917,1073741829,3758096389,2147483653,536870917,536870917,2147483653,2147483653,2147483653,2147483653,536870917,2147483653,2147483653,2147483653,1073741829,536870917,536870917,536870917,536870917,536870917,536870917,536870917,536870917,536870917,536870917,536870917,5,3758096389,3758096389,5,5,5,5,5,5,5,2147483653,2147483653,2147483653,536870917,
0,0,0,0,0,0,0,0,0,0,0,0,0,0,0,0,0,3758096389,3758096389,5,1073741829,1073741829,1073741829,1073741829,1073741829,2147483653,536870917,536870917,536870917,3758096389,2147483653,2147483653,3758096389,3758096389,3758096389,3758096389,1073741829,1073741829,5,5,2147483653,536870917,536870917,3758096389,3758096389,3758096389,5,5,5,5,536870917,2147483653,2147483653,2147483653,5,536870917,536870917,536870917,536870917,1073741829,2147483653,1073741829,2147483653,
0,0,0,0,0,0,0,0,0,0,0,0,0,0,0,0,0,0,0,0,0,0,0,0,0,0,0,0,0,0,0,0,0,0,0,0,0,0,0,0,0,0,0,0,0,0,0,0,0,0,0,0,0,0,0,0,0,0,536870917,536870917,0,0,0,
0,0,0,0,0,0,0,0,0,0,0,0,0,0,0,0,0,0,0,0,0,0,0,0,0,0,0,0,0,0,0,0,0,0,0,0,0,0,0,0,0,0,0,0,0,0,0,0,0,0,0,0,0,0,0,0,0,0,0,0,0,0,0,
0,0,0,0,0,0,0,0,0,0,0,0,0,0,0,0,0,0,0,0,0,0,0,0,0,0,0,0,0,0,0,0,0,0,0,0,0,0,0,0,0,0,0,0,0,0,0,0,0,0,0,0,0,0,0,0,0,0,0,0,0,0,0,
0,0,0,0,0,0,0,0,0,0,0,0,0,0,0,0,0,0,0,0,0,0,0,0,0,0,0,0,0,0,0,0,0,0,0,0,0,0,0,0,0,0,0,0,0,0,0,0,0,0,0,0,0,0,0,0,0,0,0,0,0,0,0,
0,0,0,0,0,0,0,0,0,0,0,0,0,0,0,0,0,0,0,0,0,0,0,0,0,0,0,0,0,0,0,0,0,0,0,0,0,0,0,0,0,0,0,0,0,0,0,0,0,0,0,0,0,0,0,0,0,0,0,0,0,0,0,
0,0,0,0,0,0,0,0,0,0,0,0,0,0,0,0,0,0,0,0,0,0,0,0,0,0,0,0,0,0,0,0,0,0,0,0,0,0,0,0,0,0,0,0,0,0,0,0,0,0,0,0,0,0,0,0,0,0,0,0,0,0,0,
0,0,0,0,0,0,0,0,0,0,0,0,0,0,0,0,0,0,0,0,0,0,0,0,0,0,0,0,0,0,0,0,0,0,0,0,0,0,0,0,0,0,0,0,0,0,0,0,0,0,0,0,0,0,0,0,0,0,0,0,0,0,0,
0,0,0,0,0,0,0,0,0,0,0,0,0,0,0,0,0,0,0,0,0,0,0,0,0,0,0,0,0,0,0,0,0,0,0,0,0,0,0,0,0,0,0,0,0,0,0,0,0,0,0,0,0,0,0,0,0,0,0,0,0,0,0,
0,0,0,0,0,0,0,0,0,0,0,0,0,0,0,0,0,0,0,0,0,0,0,0,0,0,0,0,0,0,0,0,0,0,0,0,0,0,0,0,0,0,0,0,0,0,0,0,0,0,0,0,0,0,0,0,0,0,0,0,0,0,0,
0,0,0,0,0,0,0,0,0,0,0,0,0,0,0,0,0,0,0,0,0,0,0,0,0,0,0,0,0,0,0,0,0,0,0,0,0,0,0,0,0,0,0,0,0,0,0,0,0,0,0,0,0,0,0,0,0,0,0,0,0,0,0,
0,0,0,0,0,0,0,0,0,0,0,0,0,0,0,0,0,0,0,0,0,0,0,0,0,0,0,0,0,0,0,0,0,0,0,0,0,0,0,0,0,0,0,0,0,0,0,0,0,0,0,0,0,0,0,0,0,0,0,0,0,0,0,
0,0,0,0,0,0,0,0,0,0,0,0,0,0,0,0,0,0,0,0,0,0,0,0,0,0,0,0,0,0,0,0,0,0,0,0,0,0,0,0,0,0,0,0,0,0,0,0,0,0,0,0,0,0,0,0,0,0,0,0,0,0,0,
0,0,0,0,0,0,0,0,0,0,0,0,0,0,0,0,0,0,0,0,0,0,0,0,0,0,0,0,0,0,0,0,0,0,0,0,0,0,0,0,0,0,0,0,0,0,0,0,0,0,0,0,0,0,0,0,0,0,0,0,0,0,0,
0,0,0,0,0,0,0,0,0,0,0,0,0,0,0,0,0,0,0,0,0,0,0,0,0,0,0,0,0,0,0,0,0,0,0,0,0,0,0,0,0,0,0,0,0,0,0,0,0,0,0,0,0,0,0,0,0,0,0,0,0,0,0,
0,0,0,0,0,0,0,0,0,0,0,0,0,0,0,0,0,0,0,0,0,0,0,0,0,0,0,0,0,0,0,0,0,0,0,0,0,0,0,0,0,0,0,0,0,0,0,0,0,0,0,0,0,0,0,0,0,0,0,0,0,0,0,
0,0,0,0,0,0,0,0,0,0,0,0,0,0,0,0,0,0,0,0,0,0,0,0,0,0,0,0,0,0,0,0,0,0,0,0,0,0,0,0,0,0,0,0,0,0,0,0,0,0,0,0,0,0,0,0,0,0,0,0,0,0,0,
0,0,0,0,0,0,0,0,0,0,0,0,0,0,0,0,0,0,0,0,0,0,0,0,0,0,0,0,0,0,0,0,0,0,0,0,0,0,0,0,0,0,0,0,0,0,0,0,0,0,0,0,0,0,0,0,0,0,0,0,0,0,0
</data>
 </layer>
 <layer id="2" name="street_signs" width="63" height="63">
  <data encoding="csv">
0,0,0,0,0,0,0,0,0,0,0,0,0,0,0,0,20,0,0,0,0,0,0,0,0,0,0,0,0,0,0,0,0,0,0,0,0,0,0,0,0,0,0,0,0,0,20,0,0,0,0,0,0,0,0,0,0,0,0,0,0,0,0,
0,0,0,0,0,0,0,0,0,0,0,0,0,0,0,0,20,0,0,0,0,0,0,0,0,0,0,0,0,0,0,0,0,0,0,0,0,0,0,0,0,0,0,0,0,0,20,0,0,0,0,0,0,0,0,0,0,0,0,0,0,0,0,
0,0,0,0,0,0,0,0,0,0,0,0,0,0,0,0,20,0,0,0,0,0,0,0,0,0,0,0,0,0,0,0,0,0,0,0,0,0,0,0,0,0,0,0,0,0,20,0,0,0,0,0,0,0,0,0,0,0,0,0,0,0,0,
0,0,0,0,0,0,0,0,0,0,0,0,0,0,0,0,20,0,0,0,0,0,0,0,0,0,0,0,0,0,0,21,0,0,0,0,0,0,0,0,0,0,0,0,0,0,20,0,0,0,0,0,0,0,0,0,0,0,0,0,0,0,0,
0,0,0,0,0,0,0,0,0,0,0,0,0,0,0,0,20,0,0,0,0,0,0,0,0,0,0,0,0,0,0,21,0,0,0,0,0,0,0,0,0,0,0,0,0,0,20,0,0,0,0,0,0,0,0,0,0,0,0,0,0,0,0,
0,0,0,0,0,0,0,0,0,0,0,0,0,0,0,0,20,0,0,0,0,0,0,0,0,0,0,0,0,0,0,21,0,0,0,0,0,0,0,0,0,0,0,0,0,0,20,0,0,0,0,0,0,0,0,0,0,0,0,0,0,0,0,
0,0,0,0,0,0,0,0,0,0,0,0,0,0,0,0,20,0,0,0,0,0,0,0,0,0,0,0,0,0,0,0,0,0,0,0,0,0,0,0,0,0,0,0,0,0,20,0,0,0,0,0,0,0,0,0,0,0,0,0,0,0,0,
0,0,0,0,0,0,0,0,0,0,0,0,0,0,0,0,20,0,0,0,0,0,0,0,0,0,0,0,0,0,0,0,0,0,0,0,0,0,0,0,0,0,0,0,0,0,20,0,0,0,0,0,0,0,0,0,0,0,0,0,0,0,0,
0,0,0,0,0,0,0,0,0,0,0,0,0,0,0,0,20,0,0,0,0,0,0,0,0,0,0,0,0,0,0,0,0,0,0,0,0,0,0,0,0,0,0,0,0,0,20,0,0,0,0,0,0,0,0,0,0,0,0,0,0,0,0,
0,0,0,0,0,0,0,0,0,0,0,0,0,0,0,0,20,0,0,0,0,0,0,0,0,0,0,0,0,0,0,0,0,0,0,0,0,0,0,0,0,0,0,0,0,0,20,0,0,0,0,0,0,0,0,0,0,0,0,0,0,0,0,
0,0,0,0,0,0,0,0,0,0,0,0,0,0,0,0,20,0,0,0,0,0,0,0,0,0,0,0,0,0,0,0,0,0,0,0,0,0,0,0,0,0,0,0,0,0,20,0,0,0,0,0,0,0,0,0,0,0,0,0,0,0,0,
0,0,0,0,0,0,0,0,0,0,0,0,0,0,0,0,20,0,0,0,0,0,0,0,0,0,0,0,0,0,0,0,0,0,0,0,0,0,0,0,0,0,0,0,0,0,20,0,0,0,0,0,0,0,0,0,0,0,0,0,0,0,0,
0,0,0,0,0,0,0,0,0,0,0,0,0,0,0,0,20,0,0,0,0,0,0,0,0,0,0,0,0,0,0,21,0,0,0,0,0,0,0,0,0,0,0,0,0,0,20,0,0,0,0,0,0,0,0,0,0,0,0,0,0,0,0,
0,0,0,0,0,0,0,0,0,0,0,0,0,0,0,0,20,0,0,0,0,0,0,0,0,0,0,0,0,0,0,21,0,0,0,0,0,0,0,0,0,0,0,0,0,0,20,0,0,0,0,0,0,0,0,0,0,0,0,0,0,0,0,
0,0,0,0,0,0,0,0,0,0,0,0,0,0,0,0,20,0,0,0,0,0,0,0,0,0,0,0,0,0,0,21,0,0,0,0,0,0,0,0,0,0,0,0,0,0,20,0,0,0,0,0,0,0,0,0,0,0,0,0,0,0,0,
0,0,0,0,0,0,0,0,0,0,0,0,0,0,0,0,20,0,0,0,0,0,0,0,0,0,0,0,0,0,0,0,0,0,0,0,0,0,0,0,0,0,0,0,0,0,20,0,0,0,0,0,0,0,0,0,0,0,0,0,0,0,0,
0,0,0,0,0,0,0,0,0,0,0,0,0,0,0,0,20,0,0,0,0,0,0,0,0,0,0,0,0,0,0,0,0,0,0,0,0,0,0,0,0,0,0,0,0,0,20,20,20,20,20,20,20,20,20,20,20,20,20,20,20,20,20,
0,0,0,0,0,0,0,0,0,0,0,0,0,0,0,0,20,0,0,0,0,0,0,0,0,0,0,0,0,0,0,0,0,0,0,0,0,0,0,0,0,0,0,0,0,0,0,0,0,0,0,0,0,0,0,0,0,0,0,0,0,0,0,
0,0,0,0,0,0,0,0,0,0,0,0,0,0,0,0,20,0,0,0,0,0,0,0,0,0,0,0,0,0,0,0,0,0,0,0,0,0,0,0,0,0,0,0,0,0,0,0,0,0,0,0,0,0,0,0,0,0,0,0,0,0,0,
0,0,0,0,0,0,0,0,0,0,0,0,0,0,0,0,20,0,0,0,0,0,0,0,0,0,0,0,0,0,0,0,0,0,0,0,0,0,0,0,0,0,0,0,0,0,0,0,0,0,0,0,0,0,0,0,0,0,0,0,0,0,0,
0,0,0,0,0,0,0,0,0,0,0,0,0,0,0,0,20,0,0,0,0,0,0,0,0,0,0,0,0,0,0,0,0,0,0,0,0,0,0,0,0,0,0,0,0,0,0,0,0,0,0,0,0,0,0,0,0,0,0,0,0,0,0,
0,0,0,0,0,0,0,0,0,0,0,0,0,0,0,0,20,0,0,0,0,0,0,0,0,0,0,0,0,0,0,21,0,0,0,0,0,0,0,0,0,0,0,0,0,0,0,0,0,0,0,0,0,0,0,0,0,0,0,0,0,0,0,
0,0,0,0,0,0,0,0,0,0,0,0,0,0,0,0,20,0,0,0,0,0,0,0,0,0,0,0,0,0,0,21,0,0,0,0,0,0,0,0,0,0,0,0,0,0,0,0,0,0,0,0,0,0,0,0,0,0,0,0,0,0,0,
0,0,0,0,0,0,0,0,0,0,0,0,0,0,0,0,20,0,0,0,0,0,0,0,0,0,0,0,0,0,0,21,0,0,0,0,0,0,0,0,0,0,0,0,0,0,0,0,0,0,0,0,0,0,0,0,0,0,0,0,0,0,0,
0,0,0,0,0,0,0,0,0,0,0,0,0,0,0,0,20,0,0,0,0,0,0,0,0,0,0,0,0,0,0,0,0,0,0,0,0,0,0,0,0,0,0,0,0,0,0,0,0,0,0,0,0,0,0,0,0,0,0,0,0,0,0,
0,0,0,0,0,0,0,0,0,0,0,0,0,0,0,0,20,0,0,0,0,0,0,0,0,0,0,0,0,0,0,0,0,0,0,0,0,0,0,0,0,0,0,0,0,0,0,0,0,0,0,0,0,0,0,0,0,0,0,0,0,0,0,
0,0,0,0,0,0,0,0,0,0,0,0,0,0,0,0,20,0,0,0,0,0,0,0,0,0,0,0,0,0,0,0,0,0,0,0,0,0,0,0,0,0,0,0,0,0,0,0,0,0,0,0,0,0,0,0,0,0,0,0,0,0,0,
0,0,0,0,0,0,0,0,0,0,0,0,0,0,0,0,20,0,0,0,0,0,0,0,0,0,0,0,0,0,0,0,0,0,0,0,0,0,0,0,0,0,0,0,0,0,0,0,0,0,0,0,0,0,0,0,0,0,0,0,0,0,0,
0,0,0,0,0,0,0,0,0,0,0,0,0,0,0,0,20,0,0,0,0,0,0,0,0,0,0,0,0,0,0,0,0,0,0,0,0,0,0,0,0,0,0,0,0,0,0,0,0,0,0,0,0,0,0,0,0,0,0,0,0,0,0,
0,0,0,0,0,0,0,0,0,0,0,0,0,0,0,0,20,0,0,0,0,0,0,0,0,0,0,0,0,0,0,0,0,0,0,0,0,0,0,0,0,0,0,0,0,0,0,0,0,0,0,0,0,0,0,0,0,0,0,0,0,0,0,
0,0,0,0,0,0,0,0,0,0,0,0,0,0,0,0,20,0,0,0,0,0,0,0,0,0,0,0,0,0,0,21,0,0,0,0,0,0,0,0,0,0,0,0,0,0,0,0,0,0,0,0,0,0,0,0,0,0,0,0,0,0,0,
0,0,0,0,0,0,0,0,0,0,0,0,0,0,0,0,20,0,0,0,0,0,0,0,0,0,0,0,0,0,0,23,22,0,0,0,0,0,0,22,22,22,0,0,0,0,0,0,22,22,22,0,0,0,0,0,0,22,22,22,0,0,0,
0,0,0,0,0,0,0,0,0,0,0,0,0,0,0,0,20,0,0,0,0,0,0,0,0,0,0,0,0,0,0,0,0,0,0,0,0,0,0,0,0,0,0,0,0,0,0,0,0,0,0,0,0,0,0,0,0,0,0,0,0,0,0,
0,0,0,0,0,0,0,0,0,0,0,0,0,0,0,0,20,0,0,0,0,0,0,0,0,0,0,0,0,0,0,0,0,0,0,0,0,0,0,0,0,0,0,0,0,0,0,0,0,0,0,0,0,0,0,0,0,0,0,0,0,0,0,
0,0,0,0,0,0,0,0,0,0,0,0,0,0,0,0,20,0,0,0,0,0,0,0,0,0,0,0,0,0,0,0,0,0,0,0,0,0,0,0,0,0,0,0,0,0,0,0,0,0,0,0,0,0,0,0,0,0,0,0,0,0,0,
0,0,0,0,0,0,0,0,0,0,0,0,0,0,0,0,20,0,0,0,0,0,0,0,0,0,0,0,0,0,0,0,0,0,0,0,0,0,0,0,0,0,0,0,0,0,0,0,0,0,0,0,0,0,0,0,0,0,0,0,0,0,0,
0,0,0,0,0,0,0,0,0,0,0,0,0,0,0,0,20,0,0,0,0,0,0,0,0,0,0,0,0,0,0,0,0,0,0,0,0,0,0,0,0,0,0,0,0,0,0,0,0,0,0,0,0,0,0,0,0,0,0,0,0,0,0,
0,0,0,0,0,0,0,0,0,0,0,0,0,0,0,0,20,0,0,0,0,0,0,0,0,0,0,0,0,0,0,0,0,0,0,0,0,0,0,0,0,0,0,0,0,0,0,0,0,0,0,0,0,0,0,0,0,0,0,0,0,0,0,
0,0,0,0,0,0,0,0,0,0,0,0,0,0,0,0,20,0,0,0,0,0,0,0,0,0,0,0,0,0,0,0,0,0,0,0,0,0,0,0,0,0,0,0,0,0,0,0,0,0,0,0,0,0,0,0,0,0,0,0,0,0,0,
0,0,0,0,0,0,0,0,0,0,0,0,0,0,0,0,20,0,0,0,0,0,0,0,0,0,0,0,0,0,0,0,0,0,0,0,0,0,0,0,0,0,0,0,0,0,0,0,0,0,0,0,0,0,0,0,0,0,0,0,0,0,0,
0,0,0,0,0,0,0,0,0,0,0,0,0,0,0,0,20,0,0,0,0,0,0,0,0,0,0,0,0,0,0,0,0,0,0,0,0,0,0,0,0,0,0,0,0,0,0,0,0,0,0,0,0,0,0,0,0,0,0,0,0,0,0,
0,0,0,0,0,0,0,0,0,0,0,0,0,0,0,0,20,0,0,0,0,0,0,0,0,0,0,0,0,0,0,0,0,0,0,0,0,0,0,0,0,0,0,0,0,0,0,0,0,0,0,0,0,0,0,0,0,0,0,0,0,0,0,
0,0,0,0,0,0,0,0,0,0,0,0,0,0,0,0,20,0,0,0,0,0,0,0,0,0,0,0,0,0,0,0,0,0,0,0,0,0,0,0,0,0,0,0,0,0,0,0,0,0,0,0,0,0,0,0,0,0,0,0,0,0,0,
0,0,0,0,0,0,0,0,0,0,0,0,0,0,0,0,20,0,0,0,0,0,0,0,0,0,0,0,0,0,0,0,0,0,0,0,0,0,0,0,0,0,0,0,0,0,0,0,0,0,0,0,0,0,0,0,0,0,0,0,0,0,0,
0,0,0,0,0,0,0,0,0,0,0,0,0,0,0,0,20,0,0,0,0,0,0,0,0,0,0,0,0,0,0,0,0,0,0,0,0,0,0,0,0,0,0,0,0,0,0,0,0,0,0,0,0,0,0,0,0,0,0,0,0,0,0,
0,0,0,0,0,0,0,0,0,0,0,0,0,0,0,0,20,0,0,0,0,0,0,0,0,0,0,0,0,0,0,0,0,0,0,0,0,0,0,0,0,0,0,0,0,0,0,0,0,0,0,0,0,0,0,0,0,0,0,0,0,0,0,
0,0,0,0,0,0,0,0,0,0,0,0,0,0,0,0,20,20,20,20,20,20,20,20,20,20,20,20,20,20,20,20,20,20,20,20,20,20,20,20,20,20,20,20,20,20,20,20,20,20,20,20,20,20,20,20,20,20,20,20,20,20,20,
0,0,0,0,0,0,0,0,0,0,0,0,0,0,0,0,0,0,0,0,0,0,0,0,0,0,0,0,0,0,0,0,0,0,0,0,0,0,0,0,0,0,0,0,0,0,0,0,0,0,0,0,0,0,0,0,0,0,0,0,0,0,0,
0,0,0,0,0,0,0,0,0,0,0,0,0,0,0,0,0,0,0,0,0,0,0,0,0,0,0,0,0,0,0,0,0,0,0,0,0,0,0,0,0,0,0,0,0,0,0,0,0,0,0,0,0,0,0,0,0,0,0,0,0,0,0,
0,0,0,0,0,0,0,0,0,0,0,0,0,0,0,0,0,0,0,0,0,0,0,0,0,0,0,0,0,0,0,0,0,0,0,0,0,0,0,0,0,0,0,0,0,0,0,0,0,0,0,0,0,0,0,0,0,0,0,0,0,0,0,
0,0,0,0,0,0,0,0,0,0,0,0,0,0,0,0,0,0,0,0,0,0,0,0,0,0,0,0,0,0,0,0,0,0,0,0,0,0,0,0,0,0,0,0,0,0,0,0,0,0,0,0,0,0,0,0,0,0,0,0,0,0,0,
0,0,0,0,0,0,0,0,0,0,0,0,0,0,0,0,0,0,0,0,0,0,0,0,0,0,0,0,0,0,0,0,0,0,0,0,0,0,0,0,0,0,0,0,0,0,0,0,0,0,0,0,0,0,0,0,0,0,0,0,0,0,0,
0,0,0,0,0,0,0,0,0,0,0,0,0,0,0,0,0,0,0,0,0,0,0,0,0,0,0,0,0,0,0,0,0,0,0,0,0,0,0,0,0,0,0,0,0,0,0,0,0,0,0,0,0,0,0,0,0,0,0,0,0,0,0,
0,0,0,0,0,0,0,0,0,0,0,0,0,0,0,0,0,0,0,0,0,0,0,0,0,0,0,0,0,0,0,0,0,0,0,0,0,0,0,0,0,0,0,0,0,0,0,0,0,0,0,0,0,0,0,0,0,0,0,0,0,0,0,
0,0,0,0,0,0,0,0,0,0,0,0,0,0,0,0,0,0,0,0,0,0,0,0,0,0,0,0,0,0,0,0,0,0,0,0,0,0,0,0,0,0,0,0,0,0,0,0,0,0,0,0,0,0,0,0,0,0,0,0,0,0,0,
0,0,0,0,0,0,0,0,0,0,0,0,0,0,0,0,0,0,0,0,0,0,0,0,0,0,0,0,0,0,0,0,0,0,0,0,0,0,0,0,0,0,0,0,0,0,0,0,0,0,0,0,0,0,0,0,0,0,0,0,0,0,0,
0,0,0,0,0,0,0,0,0,0,0,0,0,0,0,0,0,0,0,0,0,0,0,0,0,0,0,0,0,0,0,0,0,0,0,0,0,0,0,0,0,0,0,0,0,0,0,0,0,0,0,0,0,0,0,0,0,0,0,0,0,0,0,
0,0,0,0,0,0,0,0,0,0,0,0,0,0,0,0,0,0,0,0,0,0,0,0,0,0,0,0,0,0,0,0,0,0,0,0,0,0,0,0,0,0,0,0,0,0,0,0,0,0,0,0,0,0,0,0,0,0,0,0,0,0,0,
0,0,0,0,0,0,0,0,0,0,0,0,0,0,0,0,0,0,0,0,0,0,0,0,0,0,0,0,0,0,0,0,0,0,0,0,0,0,0,0,0,0,0,0,0,0,0,0,0,0,0,0,0,0,0,0,0,0,0,0,0,0,0,
0,0,0,0,0,0,0,0,0,0,0,0,0,0,0,0,0,0,0,0,0,0,0,0,0,0,0,0,0,0,0,0,0,0,0,0,0,0,0,0,0,0,0,0,0,0,0,0,0,0,0,0,0,0,0,0,0,0,0,0,0,0,0,
0,0,0,0,0,0,0,0,0,0,0,0,0,0,0,0,0,0,0,0,0,0,0,0,0,0,0,0,0,0,0,0,0,0,0,0,0,0,0,0,0,0,0,0,0,0,0,0,0,0,0,0,0,0,0,0,0,0,0,0,0,0,0,
0,0,0,0,0,0,0,0,0,0,0,0,0,0,0,0,0,0,0,0,0,0,0,0,0,0,0,0,0,0,0,0,0,0,0,0,0,0,0,0,0,0,0,0,0,0,0,0,0,0,0,0,0,0,0,0,0,0,0,0,0,0,0,
0,0,0,0,0,0,0,0,0,0,0,0,0,0,0,0,0,0,0,0,0,0,0,0,0,0,0,0,0,0,0,0,0,0,0,0,0,0,0,0,0,0,0,0,0,0,0,0,0,0,0,0,0,0,0,0,0,0,0,0,0,0,0
</data>
 </layer>
 <layer id="3" name="aux" width="63" height="63" visible="0">
  <data encoding="csv">
0,0,0,0,0,0,0,0,0,0,0,0,0,0,0,0,0,0,0,0,0,0,0,0,0,0,0,0,0,0,0,0,0,0,0,0,0,0,0,0,0,0,0,0,0,0,0,0,0,0,0,0,0,0,0,0,0,0,0,0,0,0,0,
0,0,0,0,0,0,0,0,0,0,0,0,0,0,0,0,0,0,0,0,0,0,0,0,0,0,0,0,0,0,0,0,0,0,0,0,0,0,0,0,0,0,0,0,0,0,0,0,0,0,0,0,0,0,0,0,0,0,0,0,0,0,0,
0,0,0,0,0,0,0,0,0,0,0,0,0,0,0,0,0,0,0,0,0,0,0,0,0,0,0,0,0,0,0,0,0,0,0,0,0,0,0,0,0,0,0,0,0,0,0,0,0,0,0,0,0,0,0,0,0,0,0,0,0,0,0,
0,0,0,0,0,0,0,0,0,0,0,0,0,0,0,0,0,0,0,0,0,0,0,0,0,0,0,0,0,0,0,0,0,0,0,0,0,0,0,0,0,0,0,0,0,0,0,0,0,0,0,0,0,0,0,0,0,0,0,0,0,0,0,
0,0,0,0,0,0,0,0,0,0,0,0,0,0,0,0,0,0,0,0,0,0,0,0,0,0,0,0,0,0,0,0,0,0,0,0,0,0,0,0,0,0,0,0,0,0,0,0,0,0,0,0,0,0,0,0,0,0,0,0,0,0,0,
0,0,0,0,0,0,0,0,0,0,0,0,0,0,0,0,0,0,0,0,0,0,0,0,0,0,0,0,0,0,0,0,0,0,0,0,0,0,0,0,0,0,0,0,0,0,0,0,0,0,0,0,0,0,0,0,0,0,0,0,0,0,0,
0,0,0,0,0,0,0,0,0,0,0,0,0,0,0,0,0,0,0,0,0,0,0,0,0,0,0,0,0,0,0,0,0,0,0,0,0,0,0,0,0,0,0,0,0,0,0,0,0,0,0,0,0,0,0,0,0,0,0,0,0,0,0,
0,0,0,0,0,0,0,0,0,0,0,0,0,0,0,0,0,0,0,0,0,0,0,0,0,0,0,0,0,0,0,0,0,0,0,0,0,0,0,0,0,0,0,0,0,0,0,0,0,0,0,0,0,0,0,0,0,0,0,0,0,0,0,
0,0,0,0,0,0,0,0,0,0,0,0,0,0,0,0,0,0,0,0,0,0,0,0,0,0,0,0,0,0,0,0,0,0,0,0,0,0,0,0,0,0,0,0,0,0,0,0,0,0,0,0,0,0,0,0,0,0,0,0,0,0,0,
0,0,0,0,0,0,0,0,0,0,0,0,0,0,0,0,0,0,0,0,0,0,0,0,0,0,0,0,0,0,0,0,0,0,0,0,0,0,0,0,0,0,0,0,0,0,0,0,0,0,0,0,0,0,0,0,0,0,0,0,0,0,0,
0,0,0,0,0,0,0,0,0,0,0,0,0,0,0,0,0,0,0,0,0,0,0,0,0,0,0,0,0,0,0,0,0,0,0,0,0,0,0,0,0,0,0,0,0,0,0,0,0,0,0,0,0,0,0,0,0,0,0,0,0,0,0,
0,0,0,0,0,0,0,0,0,0,0,0,0,0,0,0,0,0,0,0,0,0,0,0,0,0,0,0,0,0,0,0,0,0,0,0,0,0,0,0,0,0,0,0,0,0,0,0,0,0,0,0,0,0,0,0,0,0,0,0,0,0,0,
0,0,0,0,0,0,0,0,0,0,0,0,0,0,0,0,0,0,0,0,0,0,0,0,0,0,0,0,0,0,0,0,0,0,0,0,0,0,0,0,0,0,0,0,0,0,0,0,0,0,0,0,0,0,0,0,0,0,0,0,0,0,0,
0,0,0,0,0,0,0,0,0,0,0,0,0,0,0,0,0,0,0,0,0,0,0,0,0,0,0,0,0,0,0,0,0,0,0,0,0,0,0,0,0,0,0,0,0,0,0,0,0,0,0,0,0,0,0,0,0,0,0,0,0,0,0,
0,0,0,0,0,0,0,0,0,0,0,0,0,0,0,0,0,0,0,0,0,0,0,0,0,0,0,0,0,0,0,0,0,0,0,0,0,0,0,0,0,0,0,0,0,0,0,0,0,0,0,0,0,0,0,0,0,0,0,0,0,0,0,
0,0,0,0,0,0,0,0,0,0,0,0,0,0,0,0,0,0,0,0,0,0,0,0,0,0,0,0,0,0,0,0,0,0,0,0,0,0,0,0,0,0,0,0,0,0,0,0,0,0,0,0,0,0,0,0,0,0,0,0,0,0,0,
0,0,0,0,0,0,0,0,0,0,0,0,0,0,0,0,0,0,0,0,0,0,0,0,0,0,0,0,0,0,0,0,0,0,0,0,0,0,0,0,0,0,0,0,0,0,0,0,0,0,0,0,0,0,0,0,0,0,0,0,0,0,0,
0,0,0,0,0,0,0,0,0,0,0,0,0,0,0,0,0,0,0,0,0,0,0,0,0,0,0,0,0,0,0,0,0,0,0,0,0,0,0,0,0,0,0,0,0,0,0,0,0,0,0,0,0,0,0,0,0,0,0,0,0,0,0,
0,0,0,0,0,0,0,0,0,0,0,0,0,0,0,0,0,0,0,0,0,0,0,0,0,0,0,0,0,0,0,0,0,0,0,0,0,0,0,0,0,0,0,0,0,0,0,0,0,0,0,0,0,0,0,0,0,0,0,0,0,0,0,
0,0,0,0,0,0,0,0,0,0,0,0,0,0,0,0,0,0,0,0,0,0,0,0,0,0,0,0,0,0,0,0,0,0,0,0,0,0,0,0,0,0,0,0,0,0,0,0,0,0,0,0,0,0,0,0,0,0,0,0,0,0,0,
0,0,0,0,0,0,0,0,0,0,0,0,0,0,0,0,0,0,0,0,0,0,0,0,0,0,0,0,0,0,0,0,0,0,0,0,0,0,0,0,0,0,0,0,0,0,0,0,0,0,0,0,0,0,0,0,0,0,0,0,0,0,0,
0,0,0,0,0,0,0,0,0,0,0,0,0,0,0,0,0,0,0,0,0,5,6,7,8,9,0,0,0,0,0,0,0,0,0,0,0,0,0,0,0,0,0,0,0,0,0,0,0,0,0,0,0,0,0,0,0,0,0,0,0,0,0,
0,0,0,0,0,0,0,0,0,0,0,0,0,0,0,0,0,0,0,0,0,0,0,0,0,0,0,0,0,0,0,0,0,0,0,0,0,0,0,0,0,0,0,0,0,0,0,0,0,0,0,0,0,0,0,0,0,0,0,0,0,0,0,
0,0,0,0,0,0,0,0,0,0,0,0,0,0,0,0,0,0,0,0,0,0,0,0,0,0,0,0,0,0,0,0,0,0,0,0,0,0,0,0,0,0,0,0,0,0,0,0,0,0,0,0,0,0,0,0,0,0,0,0,0,0,0,
0,0,0,0,0,0,0,0,0,0,0,0,0,0,0,0,0,0,0,0,0,0,0,0,0,0,0,0,0,0,0,0,0,0,0,0,0,0,0,0,0,0,0,0,0,0,0,0,0,0,0,0,0,0,0,0,0,0,0,0,0,0,0,
0,0,0,0,0,0,0,0,0,0,0,0,0,0,0,0,0,0,0,0,0,0,0,0,0,0,0,0,0,0,0,0,0,0,0,0,0,0,0,0,0,0,0,0,0,0,0,0,0,0,0,0,0,0,0,0,0,0,0,0,0,0,0,
0,0,0,0,0,0,0,0,0,0,0,0,0,0,0,0,0,0,0,0,0,0,0,0,0,0,0,0,0,0,0,0,0,0,0,0,0,0,0,0,0,0,0,0,0,0,0,0,0,0,0,0,0,0,0,0,0,0,0,0,0,0,0,
0,0,0,0,0,0,0,0,0,0,0,0,0,0,0,0,0,0,0,0,0,0,0,0,0,0,0,0,0,0,0,0,0,0,0,0,0,0,0,0,0,0,0,0,0,0,0,0,0,0,0,0,0,0,0,0,0,0,0,0,0,0,0,
0,0,0,0,0,0,0,0,0,0,0,0,0,0,0,0,0,0,0,0,0,0,0,0,0,0,0,0,0,0,0,0,0,0,0,0,0,0,0,0,0,0,0,0,0,0,0,0,0,0,0,0,0,0,0,0,0,0,0,0,0,0,0,
0,0,0,0,0,0,0,0,0,0,0,0,0,0,0,0,0,0,0,0,0,0,0,0,0,0,0,0,0,0,0,0,0,0,0,0,0,0,0,0,0,0,0,0,0,0,0,0,0,0,0,0,0,0,0,0,0,0,0,0,0,0,0,
0,0,0,0,0,0,0,0,0,0,0,0,0,0,0,0,0,0,0,0,0,0,0,0,0,0,0,0,0,0,0,0,0,0,0,0,0,0,0,0,0,0,0,0,0,0,0,0,0,0,0,0,0,0,0,0,0,0,0,0,0,0,0,
0,0,0,0,0,0,0,0,0,0,0,0,0,0,0,0,0,0,0,0,0,0,0,0,0,0,0,0,0,0,0,0,0,0,0,0,0,0,0,0,0,0,0,0,0,0,0,0,0,0,0,0,0,0,0,0,0,0,0,0,0,0,0,
0,0,0,0,0,0,0,0,0,0,0,0,0,0,0,0,0,0,0,0,0,0,0,0,0,0,0,0,0,0,0,0,0,0,0,0,0,0,0,0,0,0,0,0,0,0,0,0,0,0,0,0,0,0,0,0,0,0,0,0,0,0,0,
0,0,0,0,0,0,0,0,0,0,0,0,0,0,0,0,0,0,0,0,0,0,0,0,0,0,0,0,0,0,0,0,0,0,0,0,0,0,0,0,0,0,0,0,0,0,0,0,0,0,0,0,0,0,0,0,0,0,0,0,0,0,0,
0,0,0,0,0,0,0,0,0,0,0,0,0,0,0,0,0,0,0,0,0,0,0,0,0,0,0,0,0,0,0,0,0,0,0,0,0,0,0,0,0,0,0,0,0,0,0,0,0,0,0,0,0,0,0,0,0,0,0,0,0,0,0,
0,0,0,0,0,0,0,0,0,0,0,0,0,0,0,0,0,0,0,0,0,0,0,0,0,0,0,0,0,0,0,0,0,0,0,0,0,0,0,0,0,0,0,0,0,0,0,0,0,0,0,0,0,0,0,0,0,0,0,0,0,0,0,
0,0,0,0,0,0,0,0,0,0,0,0,0,0,0,0,0,0,0,0,0,0,0,0,0,0,0,0,0,0,0,0,0,0,0,0,0,0,0,0,0,0,0,0,0,0,0,0,0,0,0,0,0,0,0,0,0,0,0,0,0,0,0,
0,0,0,0,0,0,0,0,0,0,0,0,0,0,0,0,0,0,0,0,0,0,0,0,0,0,0,0,0,0,0,0,0,0,0,0,0,0,0,0,0,0,0,0,0,0,0,0,0,0,0,0,0,0,0,0,0,0,0,0,0,0,0,
0,0,0,0,0,0,0,0,0,0,0,0,0,0,0,0,0,0,0,0,0,0,0,0,0,0,0,0,0,0,0,0,0,0,0,0,0,0,0,0,0,0,0,0,0,0,0,0,0,0,0,0,0,0,0,0,0,0,0,0,0,0,0,
0,0,0,0,0,0,0,0,0,0,0,0,0,0,0,0,0,0,0,0,0,0,0,0,0,0,0,0,0,0,0,0,0,0,0,0,0,0,0,0,0,0,0,0,0,0,0,0,0,0,0,0,0,0,0,0,0,0,0,0,0,0,0,
0,0,0,0,0,0,0,0,0,0,0,0,0,0,0,0,0,0,0,0,0,0,0,0,0,0,0,0,0,0,0,0,0,0,0,0,0,0,0,0,0,0,0,0,0,0,0,0,0,0,0,0,0,0,0,0,0,0,0,0,0,0,0,
0,0,0,0,0,0,0,0,0,0,0,0,0,0,0,0,0,0,0,0,0,0,0,0,0,0,0,0,0,0,0,0,0,0,0,0,0,0,0,0,0,0,0,0,0,0,0,0,0,0,0,0,0,0,0,0,0,0,0,0,0,0,0,
0,0,0,0,0,0,0,0,0,0,0,0,0,0,0,0,0,0,0,0,0,0,0,0,0,0,0,0,0,0,0,0,0,0,0,0,0,0,0,0,0,0,0,0,0,0,0,0,0,0,0,0,0,0,0,0,0,0,0,0,0,0,0,
0,0,0,0,0,0,0,0,0,0,0,0,0,0,0,0,0,0,0,0,0,0,0,0,0,0,0,0,0,0,0,0,0,0,0,0,0,0,0,0,0,0,0,0,0,0,0,0,0,0,0,0,0,0,0,0,0,0,0,0,0,0,0,
0,0,0,0,0,0,0,0,0,0,0,0,0,0,0,0,0,0,0,0,0,0,0,0,0,0,0,0,0,0,0,0,0,0,0,0,0,0,0,0,0,0,0,0,0,0,0,0,0,0,0,0,0,0,0,0,0,0,0,0,0,0,0,
0,0,0,0,0,0,0,0,0,0,0,0,0,0,0,0,0,0,0,0,0,0,0,0,0,0,0,0,0,0,0,0,0,0,0,0,0,0,0,0,0,0,0,0,0,0,0,0,0,0,0,0,0,0,0,0,0,0,0,0,0,0,0,
0,0,0,0,0,0,0,0,0,0,0,0,0,0,0,0,0,0,0,0,0,0,0,0,0,0,0,0,0,0,0,0,0,0,0,0,0,0,0,0,0,0,0,0,0,0,0,0,0,0,0,0,0,0,0,0,0,0,0,0,0,0,0,
0,0,0,0,0,0,0,0,0,0,0,0,0,0,0,0,0,0,0,0,0,0,0,0,0,0,0,0,0,0,0,0,0,0,0,0,0,0,0,0,0,0,0,0,0,0,0,0,0,0,0,0,0,0,0,0,0,0,0,0,0,0,0,
0,0,0,0,0,0,0,0,0,0,0,0,0,0,0,0,0,0,0,0,0,0,0,0,0,0,0,0,0,0,0,0,0,0,0,0,0,0,0,0,0,0,0,0,0,0,0,0,0,0,0,0,0,0,0,0,0,0,0,0,0,0,0,
0,0,0,0,0,0,0,0,0,0,0,0,0,0,0,0,0,0,0,0,0,0,0,0,0,0,0,0,0,0,0,0,0,0,0,0,0,0,0,0,0,0,0,0,0,0,0,0,0,0,0,0,0,0,0,0,0,0,0,0,0,0,0,
0,0,0,0,0,0,0,0,0,0,0,0,0,0,0,0,0,0,0,0,0,0,0,0,0,0,0,0,0,0,0,0,0,0,0,0,0,0,0,0,0,0,0,0,0,0,0,0,0,0,0,0,0,0,0,0,0,0,0,0,0,0,0,
0,0,0,0,0,0,0,0,0,0,0,0,0,0,0,0,0,0,0,0,0,0,0,0,0,0,0,0,0,0,0,0,0,0,0,0,0,0,0,0,0,0,0,0,0,0,0,0,0,0,0,0,0,0,0,0,0,0,0,0,0,0,0,
0,0,0,0,0,0,0,0,0,0,0,0,0,0,0,0,0,0,0,0,0,0,0,0,0,0,0,0,0,0,0,0,0,0,0,0,0,0,0,0,0,0,0,0,0,0,0,0,0,0,0,0,0,0,0,0,0,0,0,0,0,0,0,
0,0,0,0,0,0,0,0,0,0,0,0,0,0,0,0,0,0,0,0,0,0,0,0,0,0,0,0,0,0,0,0,0,0,0,0,0,0,0,0,0,0,0,0,0,0,0,0,0,0,0,0,0,0,0,0,0,0,0,0,0,0,0,
0,0,0,0,0,0,0,0,0,0,0,0,0,0,0,0,0,0,0,0,0,0,0,0,0,0,0,0,0,0,0,0,0,0,0,0,0,0,0,0,0,0,0,0,0,0,0,0,0,0,0,0,0,0,0,0,0,0,0,0,0,0,0,
0,0,0,0,0,0,0,0,0,0,0,0,0,0,0,0,0,0,0,0,0,0,0,0,0,0,0,0,0,0,0,0,0,0,0,0,0,0,0,0,0,0,0,0,0,0,0,0,0,0,0,0,0,0,0,0,0,0,0,0,0,0,0,
0,0,0,0,0,0,0,0,0,0,0,0,0,0,0,0,0,0,0,0,0,0,0,0,0,0,0,0,0,0,0,0,0,0,0,0,0,0,0,0,0,0,0,0,0,0,0,0,0,0,0,0,0,0,0,0,0,0,0,0,0,0,0,
0,0,0,0,0,0,0,0,0,0,0,0,0,0,0,0,0,0,0,0,0,0,0,0,0,0,0,0,0,0,0,0,0,0,0,0,0,0,0,0,0,0,0,0,0,0,0,0,0,0,0,0,0,0,0,0,0,0,0,0,0,0,0,
0,0,0,0,0,0,0,0,0,0,0,0,0,0,0,0,0,0,0,0,0,0,0,0,0,0,0,0,0,0,0,0,0,0,0,0,0,0,0,0,0,0,0,0,0,0,0,0,0,0,0,0,0,0,0,0,0,0,0,0,0,0,0,
0,0,0,0,0,0,0,0,0,0,0,0,0,0,0,0,0,0,0,0,0,0,0,0,0,0,0,0,0,0,0,0,0,0,0,0,0,0,0,0,0,0,0,0,0,0,0,0,0,0,0,0,0,0,0,0,0,0,0,0,0,0,0,
0,0,0,0,0,0,0,0,0,0,0,0,0,0,0,0,0,0,0,0,0,0,0,0,0,0,0,0,0,0,0,0,0,0,0,0,0,0,0,0,0,0,0,0,0,0,0,0,0,0,0,0,0,0,0,0,0,0,0,0,0,0,0,
0,0,0,0,0,0,0,0,0,0,0,0,0,0,0,0,0,0,0,0,0,0,0,0,0,0,0,0,0,0,0,0,0,0,0,0,0,0,0,0,0,0,0,0,0,0,0,0,0,0,0,0,0,0,0,0,0,0,0,0,0,0,0,
0,0,0,0,0,0,0,0,0,0,0,0,0,0,0,0,0,0,0,0,0,0,0,0,0,0,0,0,0,0,0,0,0,0,0,0,0,0,0,0,0,0,0,0,0,0,0,0,0,0,0,0,0,0,0,0,0,0,0,0,0,0,0
</data>
 </layer>
</map>
