<?xml version="1.0" encoding="UTF-8"?>
<map version="1.10" tiledversion="1.11.2" orientation="orthogonal" renderorder="right-down" width="63" height="63" tilewidth="32" tileheight="32" infinite="0" nextlayerid="5" nextobjectid="1">
 <tileset firstgid="1" source="../tileset_gen4.tsx"/>
 <tileset firstgid="41" source="../tileset_gen9.tsx"/>
 <layer id="1" name="ground" width="63" height="63">
  <data encoding="csv">
0,0,0,0,0,0,0,0,0,0,0,0,0,0,0,0,0,0,0,0,0,0,0,0,0,0,0,0,0,0,0,0,0,0,0,0,0,0,0,0,0,0,0,0,0,0,0,0,0,0,0,0,0,0,0,0,0,0,0,0,0,0,0,
0,0,0,0,0,0,0,0,0,0,0,0,0,0,0,0,0,0,0,0,0,0,0,0,0,0,0,0,0,0,0,0,0,0,0,0,0,0,0,0,0,0,0,0,0,0,0,0,0,0,0,0,0,0,0,0,0,0,0,0,0,0,0,
0,0,0,0,0,0,0,0,0,0,0,0,0,0,0,0,0,0,0,0,0,0,0,0,0,0,0,0,0,0,0,0,0,0,0,0,0,0,0,0,0,0,0,0,0,0,0,0,0,0,0,0,0,0,0,0,0,0,0,0,0,0,0,
0,0,0,91,101,103,103,112,101,113,112,111,112,92,93,111,103,93,113,92,113,92,91,91,91,103,113,103,93,91,111,103,91,93,103,111,111,113,103,113,113,92,103,92,112,113,111,103,91,111,112,92,113,93,91,103,111,112,101,92,0,0,0,
0,0,0,113,92,101,101,103,103,91,112,92,91,101,112,91,111,112,92,112,93,91,113,101,92,92,112,113,103,103,112,91,103,112,93,91,103,91,92,112,112,112,112,111,93,91,92,111,113,92,112,113,113,93,112,101,112,92,93,92,0,0,0,
0,0,0,101,103,91,101,91,92,91,92,112,101,112,113,91,93,92,112,103,92,112,103,101,101,103,91,103,103,112,101,112,113,113,112,92,112,93,101,93,113,113,113,91,112,93,113,91,92,101,91,93,101,92,103,92,91,93,111,101,0,0,0,
0,0,0,101,91,111,113,93,103,93,101,111,92,111,112,101,101,101,103,113,111,113,91,112,93,92,103,93,103,112,91,113,103,101,91,93,93,103,112,91,93,93,91,101,93,93,93,112,113,93,111,103,101,93,91,111,101,113,91,111,0,0,0,
0,0,0,101,92,111,111,113,113,112,101,103,92,111,113,111,101,103,93,93,111,91,91,101,112,111,113,93,91,111,92,93,112,92,113,101,93,101,103,93,91,103,103,92,111,113,103,92,111,103,92,113,92,111,101,113,93,111,91,91,0,0,0,
0,0,0,91,113,92,111,112,91,113,93,101,103,91,111,91,93,103,101,113,91,91,91,103,93,113,113,92,112,93,113,92,111,91,103,93,103,111,103,113,101,113,101,103,111,112,101,91,101,113,111,93,91,101,93,91,113,93,92,113,0,0,0,
0,0,0,91,103,111,111,91,112,93,93,93,92,93,92,93,92,111,92,93,92,92,101,93,113,111,92,112,113,111,91,112,92,92,112,103,113,111,93,91,92,91,112,92,93,111,92,93,101,101,93,93,92,112,111,93,92,112,111,93,0,0,0,
0,0,0,91,101,91,91,93,111,93,91,92,113,111,113,111,92,112,92,112,111,91,93,91,113,91,93,92,113,113,91,101,93,112,111,112,112,111,111,92,112,103,101,113,111,101,91,92,112,91,91,103,101,103,92,91,112,92,92,103,0,0,0,
0,0,0,101,93,101,93,101,92,112,103,92,91,101,103,101,113,93,93,91,103,111,113,111,113,113,113,103,113,103,111,91,101,101,93,113,112,91,113,103,92,111,101,93,112,93,113,92,101,103,113,93,112,111,113,101,101,92,103,111,0,0,0,
0,0,0,91,112,103,101,101,101,91,103,91,92,101,91,101,92,101,112,111,92,112,113,92,103,103,111,111,91,113,93,112,113,103,112,103,113,92,93,112,92,111,101,101,92,101,91,103,91,111,101,93,92,113,101,101,101,112,93,92,0,0,0,
0,0,0,112,111,91,93,113,101,101,113,91,91,111,113,92,103,103,113,103,92,112,103,92,113,113,112,111,92,92,112,92,113,91,111,93,113,93,112,101,93,101,113,101,93,111,101,92,91,103,113,103,103,111,101,113,112,103,91,113,0,0,0,
0,0,0,103,91,101,113,101,111,113,92,93,92,93,93,92,91,103,113,92,112,101,113,101,92,112,91,93,93,112,111,92,93,113,91,112,112,112,93,91,103,112,93,112,91,103,93,92,92,91,101,113,101,101,91,103,91,103,92,112,0,0,0,
0,0,0,111,111,111,103,91,101,92,111,93,91,111,113,93,93,101,112,91,113,91,103,112,101,112,113,111,93,101,113,112,101,93,103,112,93,101,91,113,112,92,91,92,101,111,103,111,101,92,91,103,111,101,93,101,101,91,113,103,0,0,0,
0,0,0,101,101,113,101,93,93,91,113,101,93,112,113,92,91,103,92,112,112,103,92,92,111,103,101,92,92,92,91,113,103,103,93,91,103,111,93,111,111,103,93,101,113,91,112,103,93,113,93,101,92,92,93,101,92,91,91,111,0,0,0,
0,0,0,113,91,93,113,112,103,112,103,112,111,92,92,112,91,103,93,92,112,93,101,91,111,93,111,92,92,103,91,93,113,91,112,113,92,112,111,113,103,111,101,111,101,93,113,91,91,113,103,92,92,93,112,112,92,91,91,93,0,0,0,
0,0,0,92,91,111,101,92,113,113,93,101,103,111,93,103,91,101,103,112,91,101,92,103,93,91,112,111,113,92,112,91,111,93,111,111,113,112,112,113,92,93,91,112,112,103,113,113,91,92,91,92,103,113,92,92,112,111,111,91,0,0,0,
0,0,0,92,93,93,101,92,101,111,101,113,111,103,93,93,92,111,111,112,101,112,111,101,113,103,112,101,103,101,103,92,91,93,101,91,93,103,91,93,92,113,103,93,103,113,91,92,112,91,111,113,93,103,93,91,113,92,92,103,0,0,0,
0,0,0,91,111,103,112,112,111,91,91,92,91,93,91,103,101,113,111,92,113,93,103,103,101,111,112,93,103,113,93,92,101,113,113,93,111,103,91,91,92,103,111,111,93,93,103,92,101,91,112,93,111,113,91,101,103,103,91,101,0,0,0,
0,0,0,113,111,103,111,101,91,113,112,91,93,92,112,91,93,103,113,101,112,92,111,111,93,91,103,101,101,112,103,113,103,91,91,101,113,103,111,101,93,113,111,111,92,91,112,111,101,101,92,103,113,91,91,113,91,92,112,101,0,0,0,
0,0,0,91,112,101,113,92,113,101,111,91,113,111,101,93,113,111,93,93,111,101,92,103,112,101,101,101,113,93,101,93,91,112,93,93,111,101,93,101,93,93,111,113,113,112,112,91,93,101,111,92,111,91,113,111,101,112,103,92,0,0,0,
0,0,0,101,113,112,103,101,101,91,103,92,93,93,112,103,113,111,93,101,111,93,112,103,111,113,101,93,111,113,101,91,91,103,93,113,113,112,113,112,92,92,92,112,103,101,111,112,93,103,91,92,93,101,111,113,101,103,111,111,0,0,0,
0,0,0,92,111,92,92,91,93,93,93,112,101,103,113,92,113,101,91,91,101,111,91,101,92,92,101,112,113,111,92,101,113,92,111,93,101,113,93,111,113,91,111,101,101,111,112,103,92,101,93,103,112,113,113,113,93,112,112,113,0,0,0,
0,0,0,101,91,112,101,91,93,101,112,113,103,93,103,111,91,93,111,113,103,112,92,111,101,101,111,91,101,101,101,111,92,112,101,112,113,113,103,92,91,101,112,93,113,103,103,112,101,112,92,103,113,101,103,113,91,101,93,93,0,0,0,
0,0,0,103,111,113,101,101,93,113,92,111,91,93,103,111,92,91,93,112,111,101,101,91,111,101,91,113,92,101,112,91,113,111,111,111,92,112,111,91,101,111,92,113,103,111,91,113,112,91,93,92,91,111,101,93,93,91,113,112,0,0,0,
0,0,0,101,91,103,113,112,93,111,112,91,101,92,111,101,112,103,112,93,101,112,113,92,103,91,101,92,112,111,91,111,111,91,93,91,112,103,101,112,111,112,93,92,93,112,101,111,92,101,103,93,92,112,93,91,91,92,113,92,0,0,0,
0,0,0,113,92,92,111,113,91,91,92,101,103,91,113,93,111,93,92,93,101,111,112,113,113,112,91,103,111,103,111,113,103,91,103,101,92,111,103,101,101,101,93,101,112,112,101,113,103,91,101,112,91,113,111,92,92,101,103,112,0,0,0,
0,0,0,103,113,93,113,111,103,101,103,93,113,91,93,111,113,113,111,112,103,101,111,93,93,112,93,111,103,93,112,112,112,92,91,111,103,92,103,111,101,93,111,91,111,91,92,111,112,101,113,101,111,93,92,101,93,92,91,92,0,0,0,
0,0,0,93,93,103,103,92,92,113,103,91,92,93,113,111,91,103,92,92,113,112,103,101,111,92,113,111,92,92,91,113,112,101,93,112,103,112,93,93,111,103,103,101,113,103,103,93,111,101,112,101,113,111,113,92,112,111,91,92,0,0,0,
0,0,0,93,113,112,101,101,113,91,101,111,111,111,103,113,103,111,92,112,113,91,92,111,92,91,111,93,92,101,93,101,112,101,111,101,111,92,91,101,101,111,103,101,112,112,93,91,91,112,113,112,113,113,101,113,93,91,101,92,0,0,0,
0,0,0,101,101,111,111,101,111,113,91,101,92,93,111,112,92,92,101,101,111,113,112,91,113,91,113,93,112,111,112,111,112,91,91,113,111,91,92,111,112,103,103,103,103,111,101,101,112,112,93,112,92,101,111,91,101,93,92,112,0,0,0,
0,0,0,91,101,111,92,101,93,91,113,103,91,113,91,92,103,113,93,101,112,113,91,103,93,93,93,92,101,111,112,101,113,101,112,93,92,92,93,91,91,103,92,113,101,111,103,112,93,101,111,111,113,113,93,92,93,92,103,113,0,0,0,
0,0,0,93,112,91,112,111,103,113,91,112,92,103,92,111,113,92,111,93,93,91,113,93,91,93,113,103,113,103,112,111,113,93,113,112,112,112,111,103,92,103,111,93,103,112,91,101,91,101,103,93,103,112,111,113,113,111,103,93,0,0,0,
0,0,0,93,111,93,93,91,113,111,113,103,111,91,103,91,113,111,103,113,93,93,92,112,92,101,91,92,92,92,112,113,92,92,91,101,112,111,101,92,112,91,93,112,91,92,103,91,93,92,113,91,91,91,112,93,91,112,111,111,0,0,0,
0,0,0,103,103,91,103,91,113,91,93,93,91,111,93,113,93,92,103,91,93,113,91,113,101,93,103,91,112,93,91,111,101,93,111,111,103,111,92,111,103,112,112,112,112,92,103,113,111,93,92,101,101,111,111,92,113,113,91,101,0,0,0,
0,0,0,92,113,91,112,93,92,103,113,111,91,91,93,92,93,112,103,103,103,91,113,111,112,91,92,101,103,113,92,91,93,93,111,111,103,93,92,93,91,111,113,101,113,91,91,111,103,91,91,91,93,113,93,91,93,101,92,93,0,0,0,
0,0,0,113,93,101,103,92,103,101,101,101,112,111,92,91,101,101,101,93,91,111,103,112,111,92,93,101,101,113,91,111,93,91,112,113,92,92,113,111,93,101,93,92,113,93,92,93,113,111,101,103,103,111,113,112,91,92,111,103,0,0,0,
0,0,0,93,111,91,112,93,91,111,103,92,92,92,113,112,93,92,93,113,103,113,91,101,111,93,91,91,111,101,91,91,93,103,112,112,103,112,91,101,103,91,111,101,103,103,111,113,92,91,101,101,103,93,101,93,101,92,91,112,0,0,0,
0,0,0,111,112,111,93,91,91,93,113,111,92,112,91,91,101,113,103,112,91,112,111,113,103,101,113,101,112,92,91,93,103,103,101,91,101,91,101,113,111,112,91,91,91,92,91,101,103,101,111,91,93,101,103,113,91,103,93,92,0,0,0,
0,0,0,103,93,93,92,112,112,91,93,93,92,112,92,113,101,92,101,93,113,113,93,112,92,103,92,91,103,112,111,91,111,113,91,103,101,113,92,112,112,103,103,91,113,93,111,93,92,111,103,103,113,111,91,111,91,111,113,112,0,0,0,
0,0,0,113,92,113,103,111,113,93,111,93,93,103,101,113,111,101,112,93,103,103,113,101,93,112,101,113,103,103,93,93,101,113,93,103,112,112,112,113,93,91,92,101,111,112,113,111,103,112,101,112,91,93,92,92,91,92,113,92,0,0,0,
0,0,0,113,103,91,91,93,92,91,113,101,112,111,103,112,111,103,101,101,92,103,101,112,101,92,112,101,103,111,111,91,92,111,111,111,91,101,103,101,113,103,91,111,113,93,111,101,101,91,93,92,92,101,103,101,103,112,113,113,0,0,0,
0,0,0,93,93,93,111,103,93,93,91,112,101,92,113,92,93,92,111,91,91,113,101,91,112,101,113,101,113,113,111,103,92,112,103,103,101,113,103,111,112,92,113,91,113,92,112,111,93,111,93,93,112,113,113,92,103,113,112,113,0,0,0,
0,0,0,113,112,92,91,112,91,91,91,113,93,91,92,93,101,111,101,111,111,101,101,113,93,91,113,101,91,111,112,103,93,93,103,111,112,112,103,101,101,113,93,112,92,101,112,103,112,92,113,93,113,111,101,91,113,111,91,92,0,0,0,
0,0,0,113,93,92,92,113,93,112,113,93,111,113,101,93,91,92,91,91,92,93,103,111,103,101,91,101,103,113,101,113,92,111,111,111,111,112,111,91,112,111,111,103,93,92,113,111,101,103,111,113,91,93,112,93,103,111,93,103,0,0,0,
0,0,0,91,91,103,103,113,112,113,91,91,112,113,92,112,91,103,103,92,112,93,101,93,103,112,103,92,111,92,103,103,91,92,111,113,91,103,91,111,103,103,111,101,113,111,93,101,113,113,101,103,101,93,103,92,112,93,103,111,0,0,0,
0,0,0,103,113,101,113,93,112,103,103,93,111,92,91,93,91,91,93,93,112,112,92,113,103,101,111,103,101,111,93,112,91,111,113,112,91,93,93,93,112,91,113,112,112,101,112,111,111,93,103,112,112,101,101,91,91,101,91,93,0,0,0,
0,0,0,92,112,113,103,112,101,101,113,91,112,92,92,92,92,112,103,93,92,103,93,103,93,93,103,113,101,101,91,91,91,101,111,93,112,93,111,111,111,103,91,91,113,101,111,101,111,113,92,92,111,112,101,103,112,112,113,112,0,0,0,
0,0,0,93,92,92,103,112,112,103,93,111,111,103,92,103,91,92,101,93,112,103,103,92,92,113,111,113,93,93,101,93,91,113,92,112,101,91,112,103,111,111,93,92,91,112,113,91,111,101,113,101,101,93,93,103,93,103,112,112,0,0,0,
0,0,0,92,92,112,113,111,103,111,92,113,93,112,92,101,111,111,92,92,113,113,103,113,92,113,101,93,92,111,113,93,103,91,101,103,93,91,113,113,103,112,113,113,103,91,113,92,103,93,103,91,103,113,93,101,93,92,103,101,0,0,0,
0,0,0,101,111,112,111,103,103,92,101,101,103,111,111,93,103,103,112,101,101,103,111,93,103,92,92,92,103,92,92,101,112,91,92,101,101,103,103,112,92,101,113,91,111,101,92,92,92,93,91,101,101,103,113,92,92,91,112,103,0,0,0,
0,0,0,92,92,113,101,112,92,113,101,91,113,113,112,101,103,112,93,112,111,92,113,91,103,113,92,111,101,113,91,112,111,93,93,92,111,112,113,113,92,101,113,112,92,112,91,113,92,111,103,113,112,92,101,101,113,113,112,111,0,0,0,
0,0,0,103,111,92,111,91,92,103,101,112,103,113,113,93,101,112,111,91,111,93,112,92,93,103,101,91,113,92,93,112,91,101,113,92,93,93,103,91,101,111,113,101,103,111,113,112,92,91,92,113,112,101,93,93,113,101,101,91,0,0,0,
0,0,0,112,112,113,93,91,112,93,92,93,113,101,103,103,92,112,112,93,101,103,111,112,103,101,91,113,92,101,112,91,92,111,91,91,92,113,103,91,113,112,111,103,91,101,113,91,113,101,93,113,113,111,92,101,92,103,101,101,0,0,0,
0,0,0,113,111,101,101,113,103,101,111,111,101,103,113,103,103,112,92,93,113,93,93,113,112,101,112,92,111,103,112,92,113,103,92,111,91,93,91,91,103,111,92,111,111,93,91,113,91,112,103,111,112,111,101,112,91,111,111,111,0,0,0,
0,0,0,111,103,101,93,101,113,111,101,103,101,101,91,101,112,93,93,113,112,91,113,111,101,91,92,113,103,93,112,113,103,101,103,103,112,111,113,101,91,92,103,92,92,91,93,92,113,101,92,113,111,103,93,93,113,111,112,103,0,0,0,
0,0,0,112,103,112,103,92,112,91,103,112,113,103,113,113,92,103,91,91,112,91,112,93,92,101,91,93,103,91,113,91,91,92,91,91,91,103,101,92,92,92,101,91,112,111,112,103,92,93,92,101,92,92,103,91,112,113,91,112,0,0,0,
0,0,0,93,92,113,101,101,111,113,92,91,92,111,101,93,103,92,93,93,112,103,92,113,93,91,101,93,111,111,113,112,113,93,93,113,103,113,111,113,91,112,113,113,113,103,113,93,93,92,93,103,112,112,93,112,92,91,113,103,0,0,0,
0,0,0,0,0,0,0,0,0,0,0,0,0,0,0,0,0,0,0,0,0,0,0,0,0,0,0,0,0,0,0,0,0,0,0,0,0,0,0,0,0,0,0,0,0,0,0,0,0,0,0,0,0,0,0,0,0,0,0,0,0,0,0,
0,0,0,0,0,0,0,0,0,0,0,0,0,0,0,0,0,0,0,0,0,0,0,0,0,0,0,0,0,0,0,0,0,0,0,0,0,0,0,0,0,0,0,0,0,0,0,0,0,0,0,0,0,0,0,0,0,0,0,0,0,0,0,
0,0,0,0,0,0,0,0,0,0,0,0,0,0,0,0,0,0,0,0,0,0,0,0,0,0,0,0,0,0,0,0,0,0,0,0,0,0,0,0,0,0,0,0,0,0,0,0,0,0,0,0,0,0,0,0,0,0,0,0,0,0,0
</data>
 </layer>
 <layer id="3" name="walls" width="63" height="63">
  <data encoding="csv">
0,0,0,0,0,0,0,0,0,0,0,0,0,0,0,0,0,0,0,0,0,0,0,0,0,0,0,0,0,0,0,0,0,0,0,0,0,0,0,0,0,0,0,0,0,0,0,0,0,0,0,0,0,0,0,0,0,0,0,0,0,0,0,
0,0,0,0,0,0,0,0,0,0,0,0,0,0,0,0,0,0,0,0,0,0,0,0,0,0,0,0,0,0,0,0,0,0,0,0,0,0,0,0,0,0,0,0,0,0,0,0,0,0,0,0,0,0,0,0,0,0,0,0,0,0,0,
0,0,0,0,0,0,0,0,0,0,0,0,0,0,0,0,0,0,0,0,0,0,0,0,0,0,0,0,0,0,0,0,0,0,0,0,0,0,0,0,0,0,0,0,0,0,0,0,0,0,0,0,0,0,0,0,0,0,0,0,0,0,0,
0,0,0,0,0,0,0,0,0,0,0,0,0,0,0,0,0,0,0,0,0,0,0,0,0,0,0,0,0,0,0,0,0,0,0,0,0,0,0,0,0,0,0,0,0,0,0,0,0,0,0,0,0,0,0,0,0,0,0,0,0,0,0,
0,0,0,0,0,0,0,0,0,0,0,0,0,0,0,0,0,0,0,0,0,0,0,0,0,0,0,0,0,0,0,0,0,0,0,0,0,0,0,0,0,0,0,0,0,0,0,0,0,0,0,0,0,0,0,0,0,0,0,0,0,0,0,
0,0,0,0,0,0,0,0,0,0,0,0,0,0,0,0,0,0,0,0,0,0,0,0,0,0,0,0,0,0,0,0,0,0,0,0,0,0,0,0,0,0,0,0,0,0,0,0,0,0,0,0,0,0,0,0,0,0,0,0,0,0,0,
0,0,0,0,0,0,0,0,0,0,0,0,0,0,0,0,0,0,0,0,0,0,0,0,0,0,0,0,0,0,0,0,0,0,0,0,0,0,0,0,0,0,0,0,0,0,0,0,0,0,0,0,0,0,0,0,0,0,0,0,0,0,0,
0,0,0,0,0,0,0,0,0,0,0,0,0,0,0,0,0,0,0,63,61,61,61,61,61,61,61,61,61,64,0,0,0,0,0,63,61,61,61,61,61,61,61,61,64,0,0,0,0,0,0,0,0,0,0,0,0,0,0,0,0,0,0,
0,0,0,0,0,0,0,0,0,0,0,0,0,0,0,0,0,0,0,62,0,0,0,0,0,0,0,0,0,67,0,0,0,0,0,67,0,0,0,0,0,0,0,0,62,0,0,0,0,0,0,0,0,0,0,0,0,0,0,0,0,0,0,
0,0,0,0,0,0,0,0,0,0,0,0,0,0,0,0,0,0,0,62,0,0,0,0,0,0,0,0,0,0,0,0,0,0,0,0,0,0,0,0,0,0,0,0,62,0,0,0,0,0,0,0,0,0,0,0,0,0,0,0,0,0,0,
0,0,0,0,0,0,0,0,0,0,0,0,0,0,0,0,0,0,0,62,0,0,0,0,0,0,0,0,0,0,0,0,0,0,0,0,0,0,0,0,0,0,0,0,62,0,0,0,0,0,0,0,0,0,0,0,0,0,0,0,0,0,0,
0,0,0,0,0,0,0,0,0,0,0,0,0,0,0,0,0,0,0,62,0,0,0,0,0,0,0,0,0,0,0,0,0,0,0,0,0,0,0,0,0,0,0,0,62,0,0,0,0,0,0,0,0,0,0,0,0,0,0,0,0,0,0,
0,0,0,0,0,0,0,0,0,0,0,0,0,0,0,0,0,0,0,62,0,0,0,0,0,0,0,0,0,0,0,0,0,0,0,0,0,0,0,0,0,0,0,0,62,0,0,0,0,0,0,0,0,0,0,0,0,0,0,0,0,0,0,
0,0,0,0,0,0,0,0,0,0,0,0,0,0,0,0,0,0,0,62,0,0,0,0,0,0,0,0,0,0,0,0,0,0,0,0,0,0,0,0,0,0,0,0,62,0,0,0,0,0,0,0,0,0,0,0,0,0,0,0,0,0,0,
0,0,0,0,0,0,0,0,0,0,0,0,0,0,0,0,0,0,0,62,0,0,0,0,0,0,0,0,0,0,0,0,0,0,0,0,0,0,0,0,0,0,0,0,62,0,0,0,0,0,0,0,0,0,0,0,0,0,0,0,0,0,0,
0,0,0,0,0,0,0,0,0,0,0,0,0,0,0,0,0,0,0,62,0,0,0,0,0,0,0,0,0,0,0,0,0,0,0,0,0,0,0,0,0,0,0,0,62,0,0,0,0,0,0,0,0,0,0,0,0,0,0,0,0,0,0,
0,0,0,0,0,63,61,61,61,61,61,61,61,61,61,61,61,61,61,125,61,61,61,61,61,121,61,61,61,69,0,0,0,0,0,68,61,61,61,61,61,61,61,61,125,61,61,61,61,61,61,61,61,61,61,61,61,64,0,0,0,0,0,
0,0,0,0,0,62,0,0,0,0,0,0,0,0,0,0,0,0,0,0,0,0,0,0,0,62,0,0,0,0,0,0,0,0,0,0,0,0,0,0,0,0,0,0,0,0,0,0,0,0,0,0,0,0,0,0,0,62,0,0,0,0,0,
0,0,0,0,0,62,0,0,0,0,0,0,0,0,0,0,0,0,0,0,0,0,0,0,0,62,0,0,0,0,0,0,0,0,0,0,0,0,0,0,0,0,0,0,0,0,0,0,0,0,0,0,0,0,0,0,0,62,0,0,0,0,0,
0,0,0,0,0,62,0,0,0,0,0,0,0,0,0,0,0,0,0,0,0,0,0,0,0,62,0,0,0,0,0,0,0,0,0,0,0,0,0,0,0,0,0,0,0,0,0,0,0,0,0,0,0,0,0,0,0,62,0,0,0,0,0,
0,0,0,0,0,62,0,0,0,0,0,0,0,0,0,0,0,0,0,0,0,0,0,0,0,62,0,0,0,0,0,0,0,0,0,0,0,0,0,0,0,0,0,0,0,0,0,0,0,0,0,0,0,0,0,0,0,62,0,0,0,0,0,
0,0,0,0,0,62,0,0,0,0,0,0,0,0,0,0,0,0,0,0,0,0,0,0,0,67,0,0,0,0,0,0,0,0,0,0,0,0,0,0,0,0,0,0,0,0,0,0,0,0,0,0,0,0,0,0,0,62,0,0,0,0,0,
0,0,0,0,0,62,0,0,0,0,0,0,0,0,0,0,0,0,0,0,0,0,0,0,0,0,0,0,0,0,0,0,0,0,0,0,0,0,0,0,0,0,0,0,0,0,0,0,0,0,0,0,0,0,0,0,0,62,0,0,0,0,0,
0,0,0,0,0,62,0,0,0,0,0,0,0,0,0,0,0,0,0,0,0,0,0,0,0,122,0,0,0,0,0,0,0,0,0,0,0,0,0,0,0,0,122,0,0,0,0,0,0,0,0,0,0,0,0,0,0,62,0,0,0,0,0,
0,0,0,0,0,62,0,0,0,0,0,0,0,0,0,0,0,0,0,0,0,0,0,0,0,62,0,0,0,0,0,0,0,0,0,0,0,0,0,0,0,0,62,0,0,0,0,0,0,0,0,0,0,0,0,0,0,62,0,0,0,0,0,
0,0,0,0,0,62,0,0,0,0,0,0,0,0,0,0,0,0,0,0,0,0,0,0,0,62,0,0,0,0,0,0,0,0,0,0,0,0,0,0,0,0,62,0,0,0,0,0,0,0,0,0,0,0,0,0,0,62,0,0,0,0,0,
0,0,0,0,0,62,0,0,0,0,0,0,0,0,0,0,0,0,0,0,0,0,0,0,0,62,0,0,0,0,0,0,0,0,0,0,0,0,0,0,0,0,62,0,0,0,0,0,0,0,0,0,0,0,0,0,0,62,0,0,0,0,0,
0,0,0,0,0,62,0,0,0,0,0,0,0,0,0,0,0,0,0,0,0,0,0,0,0,62,0,0,0,0,0,0,0,0,0,0,0,0,0,0,0,0,62,0,0,0,0,0,0,0,0,0,0,0,0,0,0,62,0,0,0,0,0,
0,0,0,0,0,62,0,0,0,0,0,0,0,0,0,0,0,0,0,0,0,0,0,0,0,62,0,0,0,0,0,0,0,0,0,0,0,0,0,0,0,0,62,0,0,0,0,0,0,0,0,0,0,0,0,0,0,62,0,0,0,0,0,
0,0,0,0,0,62,0,0,0,0,0,0,0,0,0,0,0,0,0,0,0,0,0,0,0,62,0,0,0,0,0,0,0,0,0,0,0,0,0,0,0,0,62,0,0,0,0,0,0,0,0,0,0,0,0,0,0,62,0,0,0,0,0,
0,0,0,0,0,62,0,0,0,0,0,0,0,0,0,0,0,0,0,0,0,0,0,0,0,62,0,0,0,0,0,0,0,0,0,0,0,0,0,0,0,0,62,0,0,0,0,0,0,0,0,0,0,0,0,0,0,67,0,0,0,0,0,
0,0,0,0,0,62,0,0,0,0,0,0,0,0,0,0,0,0,0,0,0,0,0,0,0,62,0,0,0,0,0,0,0,0,0,0,0,0,0,0,0,0,62,0,0,0,0,0,0,0,0,0,0,0,0,0,0,0,0,0,0,0,0,
0,0,0,0,0,62,0,0,0,0,0,0,0,0,0,0,0,0,0,0,0,0,0,0,0,62,0,0,0,0,0,0,0,0,0,0,0,0,0,0,0,0,62,0,0,0,0,0,0,0,0,0,0,0,0,0,0,122,0,0,0,0,0,
0,0,0,0,0,123,61,61,61,61,61,61,61,61,61,61,69,0,68,61,61,61,61,61,61,66,0,0,0,0,0,0,0,0,0,0,0,0,0,0,0,0,62,0,0,0,0,0,0,0,0,0,0,0,0,0,0,62,0,0,0,0,0,
0,0,0,0,0,62,0,0,0,0,0,0,0,0,0,0,0,0,0,0,0,0,0,0,0,0,0,0,0,0,0,0,0,0,0,0,0,0,0,0,0,0,62,0,0,0,0,0,0,0,0,0,0,0,0,0,0,62,0,0,0,0,0,
0,0,0,0,0,62,0,0,0,0,0,0,0,0,0,0,0,0,0,0,0,0,0,0,0,0,0,0,0,0,0,0,0,0,0,0,0,0,0,0,0,0,62,0,0,0,0,0,0,0,0,0,0,0,0,0,0,62,0,0,0,0,0,
0,0,0,0,0,62,0,0,0,0,0,0,0,0,0,0,0,0,0,0,0,0,0,0,0,0,0,0,0,0,0,0,0,0,0,0,0,0,0,0,0,0,62,0,0,0,0,0,0,0,0,0,0,0,0,0,0,62,0,0,0,0,0,
0,0,0,0,0,67,0,0,0,0,0,0,0,0,0,0,0,0,0,0,0,0,0,0,0,0,0,0,0,0,0,0,0,0,0,0,0,0,0,0,0,0,62,0,0,0,0,0,0,0,0,0,0,0,0,0,0,62,0,0,0,0,0,
0,0,0,0,0,0,0,0,0,0,0,0,0,0,0,0,0,0,0,0,0,0,0,0,0,0,0,0,0,0,0,0,0,0,0,0,0,0,0,0,0,0,62,0,0,0,0,0,0,0,0,0,0,0,0,0,0,62,0,0,0,0,0,
0,0,0,0,0,0,0,0,0,0,0,0,0,0,0,0,0,0,0,0,0,0,0,0,0,0,0,0,0,0,0,0,0,0,0,0,0,0,0,0,0,0,62,0,0,0,0,0,0,0,0,0,0,0,0,0,0,62,0,0,0,0,0,
0,0,0,0,0,122,0,0,0,0,0,0,0,0,0,0,0,0,0,0,0,0,0,0,0,0,0,0,0,0,0,0,0,0,0,0,0,0,0,0,0,0,62,0,0,0,0,0,0,0,0,0,0,0,0,0,0,62,0,0,0,0,0,
0,0,0,0,0,62,0,0,0,0,0,0,0,0,0,0,0,0,0,0,0,0,0,0,0,0,0,0,0,0,0,0,0,0,0,0,0,0,0,0,0,0,62,0,0,0,0,0,0,0,0,0,0,0,0,0,0,62,0,0,0,0,0,
0,0,0,0,0,62,0,0,0,0,0,0,0,0,0,0,0,0,0,0,0,0,0,0,0,0,0,0,0,0,0,0,0,0,0,0,0,0,0,0,0,0,62,0,0,0,0,0,0,0,0,0,0,0,0,0,0,62,0,0,0,0,0,
0,0,0,0,0,62,0,0,0,0,0,0,0,0,0,0,0,0,0,0,0,0,0,0,0,0,0,0,0,0,0,0,0,0,0,0,0,0,0,0,0,0,62,0,0,0,0,0,0,0,0,0,0,0,0,0,0,62,0,0,0,0,0,
0,0,0,0,0,62,0,0,0,0,0,0,0,0,0,0,0,0,0,0,0,0,0,0,0,0,0,0,0,0,0,0,0,0,0,0,0,0,0,0,0,0,62,0,0,0,0,0,0,0,0,0,0,0,0,0,0,62,0,0,0,0,0,
0,0,0,0,0,123,61,61,61,61,61,61,61,61,61,61,61,61,61,61,61,61,61,61,61,121,61,61,61,61,61,61,61,69,0,68,61,61,61,61,61,61,125,61,61,61,61,61,69,0,68,61,61,61,61,61,61,124,0,0,0,0,0,
0,0,0,0,0,62,0,0,0,0,0,0,0,0,0,0,0,0,0,0,0,0,0,0,0,62,0,0,0,0,0,0,0,0,0,0,0,0,0,0,0,0,0,0,0,0,0,0,0,0,0,0,0,0,0,0,0,62,0,0,0,0,0,
0,0,0,0,0,62,0,0,0,0,0,0,0,0,0,0,0,0,0,0,0,0,0,0,0,62,0,0,0,0,0,0,0,0,0,0,0,0,0,0,0,0,0,0,0,0,0,0,0,0,0,0,0,0,0,0,0,62,0,0,0,0,0,
0,0,0,0,0,62,0,0,0,0,0,0,0,0,0,0,0,0,0,0,0,0,0,0,0,62,0,0,0,0,0,0,0,0,0,0,0,0,0,0,0,0,0,0,0,0,0,0,0,0,0,0,0,0,0,0,0,62,0,0,0,0,0,
0,0,0,0,0,62,0,0,0,0,0,0,0,0,0,0,0,0,0,0,0,0,0,0,0,62,0,0,0,0,0,0,0,0,0,0,0,0,0,0,0,0,0,0,0,0,0,0,0,0,0,0,0,0,0,0,0,62,0,0,0,0,0,
0,0,0,0,0,62,0,0,0,0,0,0,0,0,0,0,0,0,0,0,0,0,0,0,0,62,0,0,0,0,0,0,0,0,0,0,0,0,0,0,0,0,0,0,0,0,0,0,0,0,0,0,0,0,0,0,0,62,0,0,0,0,0,
0,0,0,0,0,62,0,0,0,0,0,0,0,0,0,0,0,0,0,0,0,0,0,0,0,67,0,0,0,0,0,0,0,0,0,0,0,0,0,0,0,0,0,0,0,0,0,0,0,0,0,0,0,0,0,0,0,62,0,0,0,0,0,
0,0,0,0,0,62,0,0,0,0,0,0,0,0,0,0,0,0,0,0,0,0,0,0,0,0,0,0,0,0,0,0,0,0,0,0,0,0,0,0,0,0,0,0,0,0,0,0,0,0,0,0,0,0,0,0,0,62,0,0,0,0,0,
0,0,0,0,0,65,61,61,61,61,61,64,0,0,0,0,0,0,0,0,0,0,0,0,0,122,0,0,0,0,0,0,0,0,0,0,0,0,0,0,0,0,0,0,0,0,0,0,0,0,0,63,61,61,61,61,61,66,0,0,0,0,0,
0,0,0,0,0,0,0,0,0,0,0,62,0,0,0,0,0,0,0,0,0,0,0,0,0,62,0,0,0,0,0,0,0,0,0,0,0,0,0,0,0,0,0,0,0,0,0,0,0,0,0,62,0,0,0,0,0,0,0,0,0,0,0,
0,0,0,0,0,0,0,0,0,0,0,62,0,0,0,0,0,0,0,0,0,0,0,0,0,62,0,0,0,0,0,0,0,0,0,0,0,0,0,0,0,0,0,0,0,0,0,0,0,0,0,62,0,0,0,0,0,0,0,0,0,0,0,
0,0,0,0,0,0,0,0,0,0,0,62,0,0,0,0,0,0,0,0,0,0,0,0,0,62,0,0,0,0,0,0,0,0,0,0,0,0,0,0,0,0,0,0,0,0,0,0,0,0,0,62,0,0,0,0,0,0,0,0,0,0,0,
0,0,0,0,0,0,0,0,0,0,0,62,0,0,0,0,0,0,0,0,0,0,0,0,0,62,0,0,0,0,0,0,0,0,0,0,0,0,0,0,0,0,0,0,0,0,0,0,0,0,0,62,0,0,0,0,0,0,0,0,0,0,0,
0,0,0,0,0,0,0,0,0,0,0,65,61,61,61,61,61,61,61,61,61,61,61,61,61,125,61,61,61,61,61,61,61,61,61,61,61,61,61,61,61,61,61,61,61,61,61,61,61,61,61,66,0,0,0,0,0,0,0,0,0,0,0,
0,0,0,0,0,0,0,0,0,0,0,0,0,0,0,0,0,0,0,0,0,0,0,0,0,0,0,0,0,0,0,0,0,0,0,0,0,0,0,0,0,0,0,0,0,0,0,0,0,0,0,0,0,0,0,0,0,0,0,0,0,0,0,
0,0,0,0,0,0,0,0,0,0,0,0,0,0,0,0,0,0,0,0,0,0,0,0,0,0,0,0,0,0,0,0,0,0,0,0,0,0,0,0,0,0,0,0,0,0,0,0,0,0,0,0,0,0,0,0,0,0,0,0,0,0,0,
0,0,0,0,0,0,0,0,0,0,0,0,0,0,0,0,0,0,0,0,0,0,0,0,0,0,0,0,0,0,0,0,0,0,0,0,0,0,0,0,0,0,0,0,0,0,0,0,0,0,0,0,0,0,0,0,0,0,0,0,0,0,0,
0,0,0,0,0,0,0,0,0,0,0,0,0,0,0,0,0,0,0,0,0,0,0,0,0,0,0,0,0,0,0,0,0,0,0,0,0,0,0,0,0,0,0,0,0,0,0,0,0,0,0,0,0,0,0,0,0,0,0,0,0,0,0
</data>
 </layer>
</map>
